; generated by Slic3r 1.1.7 on 2015-04-21 at 08:40:53

; H-PLA-03-025-1

; perimeters extrusion width = 0.30mm
; infill extrusion width = 0.37mm
; solid infill extrusion width = 0.37mm
; top infill extrusion width = 0.37mm

G21 ; set units to millimeters
M190 S70 ; wait for bed temperature to be reached
M104 S200 ; set temperature
G28
G1 Z0.2 F200
G1 X15 Y20 F12000
M109 S200 ; wait for temperature to be reached
G90 ; use absolute coordinates
G92 E0
M82 ; use absolute distances for extrusion
G1 F2220.000 E-1.75000
G92 E0
G1 Z0.200 F15000.000
G1 X52.831 Y50.548 F15000.000
G1 E1.75000 F2220.000
G1 X57.251 Y47.404 E1.95614 F1200.000
G1 X62.227 Y45.247 E2.16229
G1 X67.006 Y44.231 E2.34796
G1 X67.544 Y44.172 E2.36853
G1 X72.967 Y44.225 E2.57467
G1 X78.261 Y45.406 E2.78082 F1200.000
G1 X83.194 Y47.661 E2.98696
G1 X87.551 Y50.892 E3.19311
G1 X91.140 Y54.958 E3.39925
G1 X93.586 Y59.195 E3.58516
G1 X93.805 Y59.682 E3.60549
G1 X95.430 Y64.857 E3.81164
G1 X95.944 Y70.257 E4.01778
G1 X95.323 Y75.645 E4.22392
G1 X93.817 Y80.282 E4.40921
G1 X93.596 Y80.787 E4.43016
G1 X91.159 Y85.009 E4.61544
G1 X90.838 Y85.457 E4.63639
G1 X87.169 Y89.452 E4.84253
G1 X82.749 Y92.596 E5.04868
G1 X77.773 Y94.753 E5.25482
G1 X72.456 Y95.828 E5.46097
G1 X67.033 Y95.775 E5.66712
G1 X61.739 Y94.594 E5.87326
G1 X56.806 Y92.339 E6.07941
G1 X52.450 Y89.108 E6.28555
G1 X49.181 Y85.478 E6.47119
G1 X48.851 Y85.026 E6.49249
G1 X46.195 Y80.318 E6.69793
G1 X44.683 Y75.665 E6.88384
G1 X44.570 Y75.143 E6.90417
G1 X44.059 Y70.278 E7.09008
G1 X44.056 Y69.743 E7.11040
G1 X44.677 Y64.355 E7.31655
G1 X46.404 Y59.213 E7.52269
G1 X49.162 Y54.543 E7.72884
G1 X52.801 Y50.581 E7.93327
G1 F2220.000 E6.18327
G92 E0
G1 X89.944 Y70.000 F15000.000
G1 E1.75000 F2220.000
G1 X88.472 Y72.550 E1.86190 F600.000
G1 X85.528 Y72.550 E1.97380
G1 X84.056 Y70.000 E2.08570
G1 X85.528 Y67.450 E2.19760
G1 X88.472 Y67.450 E2.30950
G1 X89.922 Y69.961 E2.41969
G1 X89.416 Y70.000 F15000.000
G1 X88.208 Y72.093 E2.51153 F600.000
G1 X85.792 Y72.093 E2.60337
G1 X84.584 Y70.000 E2.69521
G1 X85.792 Y67.907 E2.78706
G1 X88.208 Y67.907 E2.87890
G1 X89.394 Y69.961 E2.96903
G1 X88.889 Y70.000 F15000.000
G1 X87.944 Y71.636 E3.04081 F600.000
G1 X86.056 Y71.636 E3.11259
G1 X85.111 Y70.000 E3.18437
G1 X86.056 Y68.364 E3.25615
G1 X87.944 Y68.364 E3.32793
G1 X88.866 Y69.961 E3.39801
G1 X89.118 Y70.193 F15000.000
G1 F2220.000 E1.64801
G92 E0
G1 X70.000 Y55.944 F15000.000
G1 E1.75000 F2220.000
G1 X67.450 Y54.472 E1.86190 F600.000
G1 X67.450 Y51.528 E1.97380
G1 X70.000 Y50.056 E2.08570
G1 X72.550 Y51.528 E2.19760
G1 X72.550 Y54.472 E2.30950
G1 X70.039 Y55.922 E2.41969
G1 X70.000 Y55.416 F15000.000
G1 X67.907 Y54.208 E2.51153 F600.000
G1 X67.907 Y51.792 E2.60337
G1 X70.000 Y50.584 E2.69521
G1 X72.093 Y51.792 E2.78706
G1 X72.093 Y54.208 E2.87890
G1 X70.039 Y55.394 E2.96903
G1 X70.000 Y54.889 F15000.000
G1 X68.364 Y53.944 E3.04081 F600.000
G1 X68.364 Y52.056 E3.11259
G1 X70.000 Y51.111 E3.18437
G1 X71.636 Y52.056 E3.25615
G1 X71.636 Y53.944 E3.32793
G1 X70.039 Y54.866 E3.39801
G1 X69.807 Y55.118 F15000.000
G1 F2220.000 E1.64801
G92 E0
G1 X55.944 Y70.000 F15000.000
G1 E1.75000 F2220.000
G1 X54.472 Y72.550 E1.86190 F600.000
G1 X51.528 Y72.550 E1.97380
G1 X50.056 Y70.000 E2.08570
G1 X51.528 Y67.450 E2.19760
G1 X54.472 Y67.450 E2.30950
G1 X55.922 Y69.961 E2.41969
G1 X55.416 Y70.000 F15000.000
G1 X54.208 Y72.093 E2.51153 F600.000
G1 X51.792 Y72.093 E2.60337
G1 X50.584 Y70.000 E2.69521
G1 X51.792 Y67.907 E2.78706
G1 X54.208 Y67.907 E2.87890
G1 X55.394 Y69.961 E2.96903
G1 X54.889 Y70.000 F15000.000
G1 X53.944 Y71.636 E3.04081 F600.000
G1 X52.056 Y71.636 E3.11259
G1 X51.111 Y70.000 E3.18437
G1 X52.056 Y68.364 E3.25615
G1 X53.944 Y68.364 E3.32793
G1 X54.866 Y69.961 E3.39801
G1 X55.118 Y70.193 F15000.000
G1 F2220.000 E1.64801
G92 E0
G1 X67.450 Y85.528 F15000.000
G1 E1.75000 F2220.000
G1 X70.000 Y84.056 E1.86190 F600.000
G1 X72.550 Y85.528 E1.97380
G1 X72.550 Y88.472 E2.08570
G1 X70.000 Y89.944 E2.19760
G1 X67.450 Y88.472 E2.30950
G1 X67.450 Y85.573 E2.41969
G1 X67.907 Y85.792 F15000.000
G1 X70.000 Y84.584 E2.51153 F600.000
G1 X72.093 Y85.792 E2.60337
G1 X72.093 Y88.208 E2.69521
G1 X70.000 Y89.416 E2.78705
G1 X67.907 Y88.208 E2.87890
G1 X67.907 Y85.837 E2.96903
G1 F2220.000 E1.21903
G92 E0
G1 X70.000 Y85.111 F15000.000
G1 E1.75000 F2220.000
G1 X71.636 Y86.056 E1.82178 F600.000
G1 X71.636 Y87.944 E1.89356
G1 X70.000 Y88.889 E1.96534
G1 X68.364 Y87.944 E2.03713
G1 X68.364 Y86.056 E2.10891
G1 X69.961 Y85.134 E2.17898
G1 X70.193 Y84.882 F15000.000
G1 F2220.000 E0.42898
G92 E0
G1 X70.000 Y92.207 F15000.000
G1 E1.75000 F2220.000
G1 X67.666 Y92.207 E1.83871 F600.000
G1 X63.100 Y91.237 E2.01613
G1 X58.835 Y89.338 E2.19355
G1 X55.059 Y86.594 E2.37096
G1 X51.935 Y83.125 E2.54838
G1 X49.601 Y79.082 E2.72580
G1 X48.158 Y74.643 E2.90322
G1 X47.671 Y70.000 E3.08064
G1 X48.158 Y65.357 E3.25805
G1 X49.601 Y60.918 E3.43547
G1 X51.935 Y56.875 E3.61289
G1 X55.059 Y53.406 E3.79031
G1 X58.835 Y50.662 E3.96773
G1 X63.100 Y48.763 E4.14515
G1 X67.666 Y47.793 E4.32256
G1 X72.334 Y47.793 E4.49998
G1 X76.900 Y48.763 E4.67740
G1 X81.165 Y50.662 E4.85482 F600.000
G1 X84.941 Y53.406 E5.03224
G1 X88.065 Y56.875 E5.20965
G1 X90.399 Y60.918 E5.38707
G1 X91.842 Y65.357 E5.56449
G1 X92.329 Y70.000 E5.74191
G1 X91.842 Y74.643 E5.91933
G1 X90.399 Y79.082 E6.09675
G1 X88.065 Y83.125 E6.27417
G1 X84.941 Y86.594 E6.45158
G1 X81.165 Y89.338 E6.62900
G1 X76.900 Y91.237 E6.80642
G1 X72.334 Y92.207 E6.98384
G1 X70.045 Y92.207 E7.07084
G1 X70.000 Y92.664 F15000.000
G1 X67.618 Y92.664 E7.16137 F600.000
G1 X62.958 Y91.674 E7.34244
G1 X58.605 Y89.736 E7.52351
G1 X54.751 Y86.936 E7.70458
G1 X51.563 Y83.395 E7.88565
G1 X49.181 Y79.269 E8.06672
G1 X47.709 Y74.738 E8.24779
G1 X47.211 Y70.000 E8.42886
G1 X47.709 Y65.262 E8.60993
G1 X49.181 Y60.731 E8.79100
G1 X51.563 Y56.605 E8.97207
G1 X54.751 Y53.064 E9.15314
G1 X58.605 Y50.264 E9.33421
G1 X62.958 Y48.326 E9.51528
G1 X67.618 Y47.336 E9.69635
G1 X72.382 Y47.336 E9.87742 F600.000
G1 X77.042 Y48.326 E10.05849
G1 X81.395 Y50.264 E10.23956
G1 X85.249 Y53.064 E10.42063
G1 X88.437 Y56.605 E10.60170
G1 X90.819 Y60.731 E10.78277
G1 X92.291 Y65.262 E10.96384
G1 X92.789 Y70.000 E11.14491
G1 X92.291 Y74.738 E11.32598
G1 X90.819 Y79.269 E11.50705
G1 X88.437 Y83.395 E11.68812
G1 X85.249 Y86.936 E11.86919
G1 X81.395 Y89.736 E12.05026
G1 X77.042 Y91.674 E12.23133
G1 X72.382 Y92.664 E12.41240
G1 X70.045 Y92.664 E12.50122
G1 X70.000 Y93.121 F15000.000
G1 X67.570 Y93.121 E12.59359 F600.000
G1 X62.816 Y92.111 E12.77831
G1 X58.376 Y90.134 E12.96303
G1 X54.444 Y87.277 E13.14775
G1 X51.191 Y83.665 E13.33247
G1 X48.761 Y79.456 E13.51719
G1 X47.259 Y74.834 E13.70192
G1 X46.751 Y70.000 E13.88664
G1 X47.259 Y65.166 E14.07136
G1 X48.761 Y60.544 E14.25608
G1 X51.191 Y56.335 E14.44080
G1 X54.444 Y52.723 E14.62552
G1 X58.376 Y49.866 E14.81025
G1 X62.816 Y47.889 E14.99497
G1 X67.570 Y46.879 E15.17969
G1 X72.430 Y46.879 E15.36441
G1 X77.184 Y47.889 E15.54913
G1 X81.624 Y49.866 E15.73385 F600.000
G1 X85.556 Y52.723 E15.91858
G1 X88.809 Y56.335 E16.10330
G1 X91.239 Y60.544 E16.28802
G1 X92.741 Y65.166 E16.47274
G1 X93.249 Y70.000 E16.65746
G1 X92.741 Y74.834 E16.84218
G1 X91.239 Y79.456 E17.02691
G1 X88.809 Y83.665 E17.21163
G1 X85.556 Y87.277 E17.39635
G1 X81.624 Y90.134 E17.58107
G1 X77.184 Y92.111 E17.76579
G1 X72.430 Y93.121 E17.95051
G1 X70.045 Y93.121 E18.04116
G1 F2220.000 E16.29116
G92 E0
G1 X77.385 Y48.112 F15000.000
G1 X84.649 Y86.270 F15000.000
G1 E1.75000 F2220.000
G1 X80.946 Y88.960 E1.92395 F960.000
G1 X76.765 Y90.821 E2.09790
G1 X72.288 Y91.773 E2.27185
G1 X67.712 Y91.773 E2.44580
G1 X63.235 Y90.821 E2.61975
G1 X59.054 Y88.960 E2.79370
G1 X55.351 Y86.270 E2.96765
G1 X52.288 Y82.868 E3.14159
G1 X50.000 Y78.905 E3.31554
G1 X48.586 Y74.552 E3.48949
G1 X48.107 Y70.000 E3.66344
G1 X48.586 Y65.448 E3.83739
G1 X50.000 Y61.095 E4.01134
G1 X52.288 Y57.132 E4.18529
G1 X55.351 Y53.730 E4.35924
G1 X59.054 Y51.040 E4.53319
G1 X63.235 Y49.179 E4.70714
G1 X67.712 Y48.227 E4.88109
G1 X72.288 Y48.227 E5.05504
G1 X76.765 Y49.179 E5.22899
G1 X80.946 Y51.040 E5.40294
G1 X84.649 Y53.730 E5.57689
G1 X87.712 Y57.132 E5.75083
G1 X90.000 Y61.095 E5.92478
G1 X91.414 Y65.448 E6.09873
G1 X91.893 Y70.000 E6.27268
G1 X91.414 Y74.552 E6.44663
G1 X90.000 Y78.905 E6.62058
G1 X87.712 Y82.868 E6.79453
G1 X84.679 Y86.236 E6.96677
G1 X84.341 Y85.927 F15000.000
G1 X80.716 Y88.561 E7.13706 F960.000
G1 X76.623 Y90.383 E7.30734
G1 X72.240 Y91.315 E7.47763
G1 X70.091 Y91.315 E7.55933
G1 X70.000 Y90.977 E7.57263
G1 X69.909 Y91.315 E7.58594
G1 X67.760 Y91.315 E7.66764
G1 X63.377 Y90.383 E7.83793
G1 X59.284 Y88.561 E8.00821
G1 X55.659 Y85.927 E8.17850
G1 X52.661 Y82.597 E8.34879
G1 X50.421 Y78.717 E8.51908
G1 X49.036 Y74.456 E8.68937
G1 X48.577 Y70.086 E8.85635
G1 X48.559 Y70.081 E8.85705
G1 X48.559 Y69.919 E8.86319
G1 X48.577 Y69.914 E8.86389
G1 X49.036 Y65.544 E9.03088
G1 X50.421 Y61.283 E9.20117
G1 X52.661 Y57.403 E9.37145
G1 X55.659 Y54.073 E9.54174
G1 X59.284 Y51.439 E9.71203
G1 X63.377 Y49.617 E9.88232
G1 X67.760 Y48.685 E10.05261
G1 X69.909 Y48.685 E10.13431
G1 X70.000 Y49.023 E10.14761
G1 X70.091 Y48.685 E10.16091
G1 X72.240 Y48.685 E10.24261
G1 X76.623 Y49.617 E10.41290
G1 X80.716 Y51.439 E10.58319
G1 X84.341 Y54.073 E10.75348
G1 X87.339 Y57.403 E10.92376
G1 X89.579 Y61.283 E11.09405
G1 X90.964 Y65.544 E11.26434
G1 X91.423 Y69.914 E11.43132
G1 X91.441 Y69.919 E11.43202
G1 X91.441 Y70.081 E11.43816
G1 X91.423 Y70.086 E11.43887
G1 X90.964 Y74.456 E11.60585
G1 X89.579 Y78.717 E11.77614
G1 X87.339 Y82.597 E11.94643
G1 X84.371 Y85.894 E12.11500
G1 F2220.000 E10.36500
G92 E0
G1 X85.013 Y73.442 F15000.000
G1 E1.75000 F2220.000
G1 X83.025 Y70.000 E1.90107 F960.000
G1 X85.013 Y66.558 E2.05213
G1 X88.987 Y66.558 E2.20320
G1 X90.975 Y70.000 E2.35427
G1 X88.987 Y73.442 E2.50533
G1 X85.058 Y73.442 E2.65469
G1 X85.277 Y72.984 F15000.000
G1 X83.554 Y70.000 E2.78565 F960.000
G1 X85.277 Y67.016 E2.91660
G1 X88.723 Y67.016 E3.04756
G1 X90.446 Y70.000 E3.17851
G1 X88.723 Y72.984 E3.30947
G1 X85.322 Y72.984 E3.43871
G1 F2220.000 E1.68871
G92 E0
G1 X73.442 Y54.987 F15000.000
G1 E1.75000 F2220.000
G1 X70.000 Y56.975 E1.90107 F960.000
G1 X66.558 Y54.987 E2.05213
G1 X66.558 Y51.013 E2.20320
G1 X70.000 Y49.025 E2.35427
G1 X73.442 Y51.013 E2.50533
G1 X73.442 Y54.942 E2.65469
G1 X72.984 Y54.723 F15000.000
G1 X70.000 Y56.446 E2.78565 F960.000
G1 X67.016 Y54.723 E2.91660
G1 X67.016 Y51.277 E3.04756
G1 X70.000 Y49.554 E3.17851
G1 X72.984 Y51.277 E3.30947
G1 X72.984 Y54.678 E3.43871
G1 X73.901 Y55.252 F15000.000
G1 X73.901 Y50.748 E3.60989 F960.000
G1 X71.710 Y49.483 E3.70603
G1 X71.801 Y49.144 E3.71940
G1 X72.192 Y49.144 E3.73427
G1 X76.480 Y50.055 E3.90090
G1 X80.486 Y51.838 E4.06752
G1 X84.033 Y54.415 E4.23415
G1 X86.966 Y57.673 E4.40078
G1 X89.158 Y61.470 E4.56740
G1 X90.513 Y65.640 E4.73403
G1 X90.759 Y67.985 E4.82364
G1 X90.407 Y68.099 E4.83774
G1 X89.252 Y66.099 E4.92550
G1 X84.748 Y66.099 E5.09668
G1 X82.496 Y70.000 E5.26786
G1 X84.748 Y73.901 E5.43904
G1 X89.252 Y73.901 E5.61022
G1 X90.407 Y71.901 E5.69798
G1 X90.759 Y72.015 E5.71208
G1 X90.513 Y74.360 E5.80169
G1 X89.158 Y78.530 E5.96832
G1 X86.966 Y82.327 E6.13494
G1 X84.033 Y85.585 E6.30157
G1 X80.486 Y88.162 E6.46820
G1 X76.480 Y89.945 E6.63482
G1 X72.192 Y90.856 E6.80145
G1 X71.801 Y90.856 E6.81632
G1 X71.710 Y90.517 E6.82969
G1 X73.901 Y89.252 E6.92583
G1 X73.901 Y84.748 E7.09700
G1 X70.000 Y82.496 E7.26818
G1 X66.099 Y84.748 E7.43936
G1 X66.099 Y89.252 E7.61054
G1 X68.290 Y90.517 E7.70668
G1 X68.199 Y90.856 E7.72004
G1 X67.808 Y90.856 E7.73491
G1 X63.520 Y89.945 E7.90154
G1 X59.514 Y88.162 E8.06817
G1 X55.967 Y85.585 E8.23480
G1 X53.034 Y82.327 E8.40142
G1 X50.842 Y78.530 E8.56805
G1 X49.487 Y74.360 E8.73468
G1 X49.241 Y72.015 E8.82428
G1 X49.593 Y71.901 E8.83839
G1 X50.748 Y73.901 E8.92615
G1 X55.252 Y73.901 E9.09733
G1 X57.504 Y70.000 E9.26851
G1 X55.252 Y66.099 E9.43968
G1 X50.748 Y66.099 E9.61086
G1 X49.593 Y68.099 E9.69862
G1 X49.241 Y67.985 E9.71273
G1 X49.487 Y65.640 E9.80233
G1 X50.842 Y61.470 E9.96896
G1 X53.034 Y57.673 E10.13559
G1 X55.967 Y54.415 E10.30221
G1 X59.514 Y51.838 E10.46884
G1 X63.520 Y50.055 E10.63547
G1 X67.808 Y49.144 E10.80209
G1 X68.199 Y49.144 E10.81697
G1 X68.290 Y49.483 E10.83033
G1 X66.099 Y50.748 E10.92647
G1 X66.099 Y55.252 E11.09765
G1 X70.000 Y57.504 E11.26883
G1 X73.862 Y55.274 E11.43830
G1 X74.359 Y55.517 F15000.000
G1 X74.359 Y50.073 E11.64520 F960.000
G1 X76.338 Y50.493 E11.72211
G1 X80.255 Y52.237 E11.88507
G1 X83.724 Y54.758 E12.04804
G1 X86.593 Y57.944 E12.21100
G1 X88.737 Y61.658 E12.37397
G1 X90.085 Y65.805 E12.53970
G1 X89.708 Y65.973 E12.55538
G1 X89.517 Y65.641 E12.56992
G1 X84.483 Y65.641 E12.76121
G1 X81.967 Y70.000 E12.95250
G1 X84.483 Y74.359 E13.14378
G1 X89.517 Y74.359 E13.33507
G1 X89.708 Y74.027 E13.34961
G1 X90.085 Y74.195 E13.36530
G1 X88.737 Y78.342 E13.53102
G1 X86.593 Y82.056 E13.69399
G1 X83.724 Y85.242 E13.85695
G1 X80.255 Y87.763 E14.01992
G1 X76.338 Y89.507 E14.18289
G1 X74.359 Y89.927 E14.25979
G1 X74.359 Y84.483 E14.46670
G1 X70.000 Y81.967 E14.65798
G1 X65.641 Y84.483 E14.84927
G1 X65.641 Y89.927 E15.05618
G1 X63.662 Y89.507 E15.13308
G1 X59.745 Y87.763 E15.29605
G1 X56.276 Y85.242 E15.45902
G1 X53.407 Y82.056 E15.62198
G1 X51.263 Y78.342 E15.78495
G1 X49.915 Y74.195 E15.95067
G1 X50.292 Y74.027 E15.96636
G1 X50.483 Y74.359 E15.98090
G1 X55.517 Y74.359 E16.17218
G1 X58.033 Y70.000 E16.36347
G1 X55.517 Y65.641 E16.55476
G1 X50.483 Y65.641 E16.74605
G1 X50.292 Y65.973 E16.76059
G1 X49.915 Y65.805 E16.77627
G1 X51.263 Y61.658 E16.94200
G1 X53.407 Y57.944 E17.10496
G1 X56.276 Y54.758 E17.26793
G1 X59.745 Y52.237 E17.43089
G1 X63.662 Y50.493 E17.59386
G1 X65.641 Y50.073 E17.67077
G1 X65.641 Y55.517 E17.87767
G1 X70.000 Y58.033 E18.06896
G1 X74.320 Y55.539 E18.25854
G1 X74.817 Y55.781 F15000.000
G1 X74.817 Y50.639 E18.45399 F960.000
G1 X76.196 Y50.932 E18.50756
G1 X80.025 Y52.636 E18.66686
G1 X83.416 Y55.100 E18.82617
G1 X86.221 Y58.215 E18.98547
G1 X88.316 Y61.845 E19.14477
G1 X89.401 Y65.183 E19.27817
G1 X84.219 Y65.183 E19.47512
G1 X81.438 Y70.000 E19.68652
G1 X84.219 Y74.817 E19.89791
G1 X89.401 Y74.817 E20.09486
G1 X88.316 Y78.155 E20.22826
G1 X86.221 Y81.785 E20.38756
G1 X83.416 Y84.900 E20.54686
G1 X80.025 Y87.364 E20.70617
G1 X76.196 Y89.068 E20.86547
G1 X74.817 Y89.361 E20.91904
G1 X74.817 Y84.219 E21.11449
G1 X70.000 Y81.438 E21.32589
G1 X65.183 Y84.219 E21.53729
G1 X65.183 Y89.361 E21.73274
G1 X63.804 Y89.068 E21.78631
G1 X59.975 Y87.364 E21.94562
G1 X56.584 Y84.900 E22.10492
G1 X53.779 Y81.785 E22.26422
G1 X51.684 Y78.155 E22.42353
G1 X50.599 Y74.817 E22.55692
G1 X55.781 Y74.817 E22.75387
G1 X58.562 Y70.000 E22.96527
G1 X55.781 Y65.183 E23.17667
G1 X50.599 Y65.183 E23.37362
G1 X51.684 Y61.845 E23.50701
G1 X53.779 Y58.215 E23.66632
G1 X56.584 Y55.100 E23.82562
G1 X59.975 Y52.636 E23.98492
G1 X63.804 Y50.932 E24.14423
G1 X65.183 Y50.639 E24.19780
G1 X65.183 Y55.781 E24.39325
G1 X70.000 Y58.562 E24.60465
G1 X74.778 Y55.804 E24.81434
G1 X75.275 Y56.046 F15000.000
G1 X75.275 Y51.204 E24.99834 F960.000
G1 X76.053 Y51.370 E25.02857
G1 X79.794 Y53.035 E25.18421
G1 X83.108 Y55.443 E25.33985
G1 X85.848 Y58.486 E25.49550
G1 X87.895 Y62.032 E25.65114
G1 X88.770 Y64.725 E25.75873
G1 X83.954 Y64.725 E25.94176
G1 X80.909 Y70.000 E26.17327
G1 X83.954 Y75.275 E26.40478
G1 X88.770 Y75.275 E26.58782
G1 X87.895 Y77.968 E26.69540
G1 X85.848 Y81.514 E26.85105
G1 X83.108 Y84.557 E27.00669
G1 X79.794 Y86.965 E27.16234
G1 X76.053 Y88.630 E27.31798
G1 X75.275 Y88.796 E27.34821
G1 X75.275 Y83.954 E27.53221
G1 X70.000 Y80.909 E27.76372
G1 X64.725 Y83.954 E27.99523
G1 X64.725 Y88.796 E28.17923
G1 X63.947 Y88.630 E28.20946
G1 X60.206 Y86.965 E28.36510
G1 X56.892 Y84.557 E28.52075
G1 X54.152 Y81.514 E28.67639
G1 X52.105 Y77.968 E28.83203
G1 X51.230 Y75.275 E28.93962
G1 X56.046 Y75.275 E29.12265
G1 X59.091 Y70.000 E29.35416
G1 X56.046 Y64.725 E29.58567
G1 X51.230 Y64.725 E29.76871
G1 X52.105 Y62.032 E29.87630
G1 X54.152 Y58.486 E30.03194
G1 X56.892 Y55.443 E30.18758
