; generated by Slic3r 1.1.7 on 2015-04-22 at 16:19:18

; H-PLA-03-025-1

; perimeters extrusion width = 0.30mm
; infill extrusion width = 0.37mm
; solid infill extrusion width = 0.37mm
; top infill extrusion width = 0.37mm

G21 ; set units to millimeters
M190 S70 ; wait for bed temperature to be reached
M104 S200 ; set temperature
G28
G1 Z0.2 F200
G1 X15 Y20 F12000
M109 S200 ; wait for temperature to be reached
G90 ; use absolute coordinates
G92 E0
M82 ; use absolute distances for extrusion
G1 F2220.000 E-1.75000
G92 E0
G1 Z0.200 F15000.000
G1 X44.983 Y52.127 F15000.000
G1 E1.75000 F2220.000
G1 X45.985 Y51.262 E1.80033 F1200.000
G1 X47.000 Y51.043 E1.83978
G1 X93.000 Y51.043 E3.58807
G1 X94.331 Y51.435 E3.64081
G1 X95.238 Y52.485 E3.69355 F1200.000
G1 X95.457 Y53.500 E3.73301
G1 X95.457 Y86.500 E4.98721
G1 X95.065 Y87.831 E5.03995
G1 X94.015 Y88.738 E5.09270
G1 X93.000 Y88.957 E5.13215
G1 X47.000 Y88.957 E6.88044
G1 X45.669 Y88.565 E6.93318
G1 X44.762 Y87.515 E6.98592
G1 X44.543 Y86.500 E7.02537
G1 X44.543 Y53.500 E8.27958
G1 X44.949 Y52.157 E8.33291
G1 F2220.000 E6.58291
G92 E0
G1 X92.189 Y83.500 F15000.000
G1 E1.75000 F2220.000
G1 X91.094 Y85.395 E1.83318 F600.000
G1 X88.906 Y85.395 E1.91637
G1 X87.811 Y83.500 E1.99955
G1 X88.906 Y81.605 E2.08273
G1 X91.094 Y81.605 E2.16591
G1 X92.166 Y83.461 E2.24738
G1 X92.418 Y83.693 F15000.000
G1 F2220.000 E0.49738
G92 E0
G1 X92.189 Y56.500 F15000.000
G1 E1.75000 F2220.000
G1 X91.094 Y58.395 E1.83318 F600.000
G1 X88.906 Y58.395 E1.91637
G1 X88.824 Y58.254 E1.92256
G1 X87.811 Y56.500 E1.99955
G1 X88.906 Y54.605 E2.08273
G1 X91.094 Y54.605 E2.16592
G1 X92.166 Y56.461 E2.24739
G1 X92.418 Y56.693 F15000.000
G1 F2220.000 E0.49739
G92 E0
G1 X52.189 Y56.500 F15000.000
G1 E1.75000 F2220.000
G1 X51.094 Y58.395 E1.83318 F600.000
G1 X48.906 Y58.395 E1.91637
G1 X48.810 Y58.229 E1.92366
G1 X47.811 Y56.500 E1.99955
G1 X48.906 Y54.605 E2.08273
G1 X51.094 Y54.605 E2.16592
G1 X52.166 Y56.461 E2.24739
G1 X52.418 Y56.693 F15000.000
G1 F2220.000 E0.49739
G92 E0
G1 X48.903 Y59.489 F15000.000
G1 E1.75000 F2220.000
G1 X52.186 Y59.487 E1.87478 F600.000
G1 X53.272 Y59.528 E1.91607
G1 X54.352 Y59.495 E1.95714
G1 X56.051 Y59.494 E2.02172
G1 X56.905 Y59.468 E2.05421
G1 X66.983 Y59.493 E2.43722
G1 X73.494 Y59.475 E2.68469
G1 X74.675 Y59.488 E2.72956
G1 X75.862 Y59.534 E2.77470
G1 X77.444 Y59.655 E2.83502
G1 X78.174 Y61.178 E2.89922
G1 X79.116 Y61.757 E2.94124
G1 X80.187 Y61.805 E2.98196
G1 X81.166 Y61.172 E3.02625
G1 X81.329 Y60.988 E3.03561
G1 X81.478 Y60.688 E3.04835
G1 X81.654 Y60.262 E3.06588
G1 X82.062 Y59.554 E3.09693
G1 X84.151 Y59.497 E3.17633
G1 X85.867 Y59.475 E3.24158
G1 X87.585 Y59.508 E3.30686
G1 X89.724 Y59.656 E3.38835
G1 X90.180 Y60.989 E3.44189
G1 X90.182 Y61.964 E3.47896
G1 X90.114 Y62.789 E3.51041
G1 X90.161 Y63.588 E3.54083
G1 X90.161 Y74.172 E3.94308
G1 X90.197 Y75.825 E4.00594
G1 X90.163 Y77.862 E4.08336
G1 X89.905 Y80.232 E4.17397
G1 X88.425 Y80.488 E4.23105
G1 X87.435 Y80.474 E4.26867
G1 X86.542 Y80.425 E4.30267
G1 X83.901 Y80.523 E4.40309
G1 X82.925 Y80.442 E4.44034
G1 X81.834 Y80.054 E4.48433
G1 X81.049 Y78.682 E4.54440
G1 X80.023 Y78.176 E4.58787
G1 X78.916 Y78.237 E4.63002
G1 X78.023 Y78.973 E4.67400
G1 X77.906 Y79.187 E4.68326
G1 X77.756 Y79.665 E4.70230
G1 X77.296 Y80.364 E4.73410
G1 X76.486 Y80.428 E4.76497
G1 X72.720 Y80.476 E4.90814
G1 X65.235 Y80.499 E5.19260
G1 X48.903 Y80.493 E5.81333
G1 X48.903 Y59.534 E6.60990
G1 X49.360 Y59.946 F15000.000
G1 X52.178 Y59.944 E6.71700 F600.000
G1 X53.270 Y59.985 E6.75854
G1 X54.358 Y59.952 E6.79989
G1 X56.060 Y59.951 E6.86457
G1 X56.912 Y59.925 E6.89699
G1 X66.984 Y59.950 E7.27977
G1 X73.493 Y59.932 E7.52716
G1 X74.663 Y59.945 E7.57165
G1 X75.835 Y59.991 E7.61623
G1 X77.146 Y60.091 E7.66619
G1 X77.820 Y61.497 E7.72547
G1 X78.978 Y62.208 E7.77710
G1 X80.312 Y62.268 E7.82786
G1 X81.466 Y61.522 E7.88008
G1 X81.711 Y61.246 E7.89413
G1 X81.894 Y60.877 E7.90978
G1 X82.065 Y60.464 E7.92675
G1 X82.331 Y60.004 E7.94695
G1 X84.160 Y59.954 E8.01650
G1 X85.866 Y59.933 E8.08134
G1 X87.564 Y59.965 E8.14592
G1 X89.389 Y60.091 E8.21545
G1 X89.723 Y61.066 E8.25459
G1 X89.725 Y61.946 E8.28804
G1 X89.656 Y62.783 E8.31999
G1 X89.704 Y63.602 E8.35115
G1 X89.704 Y74.176 E8.75302
G1 X89.737 Y75.999 E8.82233
G1 X89.706 Y77.833 E8.89205
G1 X89.488 Y79.840 E8.96879
G1 X88.389 Y80.031 E9.01117
G1 X87.451 Y80.018 E9.04681
G1 X86.544 Y79.967 E9.08135
G1 X83.913 Y80.065 E9.18142
G1 X83.022 Y79.992 E9.21539
G1 X82.147 Y79.680 E9.25068
G1 X81.376 Y78.334 E9.30963
G1 X80.118 Y77.713 E9.36296
G1 X78.741 Y77.789 E9.41537
G1 X77.664 Y78.677 E9.46842
G1 X77.484 Y79.007 E9.48273
G1 X77.339 Y79.467 E9.50104
G1 X77.037 Y79.926 E9.52193
G1 X76.465 Y79.972 E9.54372
G1 X72.716 Y80.019 E9.68622
G1 X65.234 Y80.042 E9.97058
G1 X49.360 Y80.036 E10.57391
G1 X49.360 Y59.991 E11.33574
G1 X49.360 Y59.646 F15000.000
G1 F2220.000 E9.58574
G92 E0
G1 X47.811 Y83.500 F15000.000
G1 E1.75000 F2220.000
G1 X48.906 Y81.605 E1.83318 F600.000
G1 X51.094 Y81.605 E1.91637
G1 X51.190 Y81.771 E1.92366
G1 X52.189 Y83.500 E1.99955
G1 X51.094 Y85.395 E2.08273
G1 X48.906 Y85.395 E2.16591
G1 X47.834 Y83.539 E2.24738
G1 X47.582 Y83.307 F15000.000
G1 X47.978 Y84.703 F15000.000
G1 X48.607 Y85.793 E2.29522 F600.000
G1 X47.707 Y85.793 E2.32943
G1 X47.707 Y84.776 E2.36810
G1 X47.935 Y84.715 E2.37705
G1 F2220.000 E0.62705
G92 E0
G1 X47.978 Y55.297 F15000.000
G1 E1.75000 F2220.000
G1 X47.707 Y55.224 E1.76066 F600.000
G1 X47.707 Y54.207 E1.79933
G1 X48.607 Y54.207 E1.83354
G1 X48.001 Y55.258 E1.87966
G1 F2220.000 E0.12966
G92 E0
G1 X53.244 Y83.500 F15000.000
G1 E1.75000 F2220.000
G1 X51.772 Y80.951 E1.86187 F600.000
G1 X65.236 Y80.956 E2.37356
G1 X72.723 Y80.933 E2.65812
G1 X76.507 Y80.885 E2.80197
G1 X77.555 Y80.802 E2.84192
G1 X78.173 Y79.863 E2.88462
G1 X78.329 Y79.367 E2.90440
G1 X78.382 Y79.269 E2.90861
G1 X79.091 Y78.685 E2.94351
G1 X79.929 Y78.639 E2.97540
G1 X80.722 Y79.030 E3.00901
G1 X81.522 Y80.428 E3.07021
G1 X82.828 Y80.893 E3.12290
G1 X83.890 Y80.980 E3.16342
G1 X86.540 Y80.882 E3.26419
G1 X87.419 Y80.931 E3.29766
G1 X88.232 Y80.943 E3.32857
G1 X86.756 Y83.500 E3.44080
G1 X87.816 Y85.336 E3.52137
G1 X52.184 Y85.336 E4.87559
G1 X53.222 Y83.539 E4.95444
G1 F2220.000 E3.20444
G92 E0
G1 X90.314 Y80.690 F15000.000
G1 E1.75000 F2220.000
G1 X90.620 Y77.890 E1.85705 F600.000
G1 X90.662 Y75.368 E1.95293
G1 X90.640 Y75.368 E1.95376
G1 X90.618 Y74.168 E1.99939
G1 X90.618 Y63.574 E2.40202
G1 X90.572 Y62.794 E2.43170
G1 X90.639 Y61.983 E2.46266
G1 X90.637 Y60.912 E2.50334
G1 X90.088 Y59.310 E2.56773
G1 X91.836 Y59.310 E2.63416
G1 X91.836 Y80.690 E3.44676
G1 X90.359 Y80.690 E3.50288
G1 F2220.000 E1.75288
G92 E0
G1 X81.794 Y59.104 F15000.000
G1 E1.75000 F2220.000
G1 X81.243 Y60.059 E1.79191 F600.000
G1 X80.946 Y60.731 E1.81982
G1 X80.865 Y60.822 E1.82447
G1 X80.061 Y61.342 E1.86085
G1 X79.255 Y61.306 E1.89152
G1 X78.528 Y60.859 E1.92393
G1 X77.742 Y59.220 E1.99304
G1 X75.888 Y59.078 E2.06373
G1 X74.686 Y59.031 E2.10943
G1 X73.496 Y59.017 E2.15468
G1 X66.982 Y59.036 E2.40224
G1 X56.899 Y59.011 E2.78547
G1 X56.043 Y59.037 E2.81802
G1 X54.346 Y59.038 E2.88251
G1 X53.273 Y59.071 E2.92330
G1 X51.783 Y59.031 E2.97996
G1 X53.244 Y56.500 E3.09102
G1 X52.184 Y54.664 E3.17159
G1 X87.816 Y54.664 E4.52581
G1 X86.756 Y56.500 E4.60638
G1 X88.255 Y59.096 E4.72032
G1 X87.605 Y59.051 E4.74509
G1 X85.869 Y59.018 E4.81108
G1 X84.142 Y59.040 E4.87673
G1 X81.839 Y59.103 E4.96427
G1 F2220.000 E3.21427
G92 E0
G1 X87.284 Y56.500 F15000.000
G1 E1.75000 F2220.000
G1 X88.642 Y58.853 E1.85324 F600.000
G1 X91.358 Y58.853 E1.95649
G1 X92.022 Y57.703 E2.00693
G1 X92.293 Y57.776 E2.01760
G1 X92.293 Y82.224 E2.94680
G1 X92.022 Y82.297 E2.95747
G1 X91.358 Y81.148 E3.00791
G1 X88.642 Y81.148 E3.11116
G1 X87.284 Y83.500 E3.21440
G1 X88.607 Y85.793 E3.31503
G1 X51.393 Y85.793 E4.72942
G1 X52.716 Y83.500 E4.83005
G1 X51.358 Y81.148 E4.93329
G1 X48.642 Y81.148 E5.03653
G1 X47.978 Y82.297 E5.08698
G1 X47.707 Y82.224 E5.09764
G1 X47.707 Y57.776 E6.02685
G1 X47.978 Y57.703 E6.03752
G1 X48.642 Y58.853 E6.08796
G1 X51.358 Y58.853 E6.19120
G1 X52.716 Y56.500 E6.29445
G1 X51.393 Y54.207 E6.39508
G1 X88.607 Y54.207 E7.80947
G1 X87.306 Y56.461 E7.90839
G1 F2220.000 E6.15839
G92 E0
G1 X91.393 Y54.207 F15000.000
G1 E1.75000 F2220.000
G1 X92.293 Y54.207 E1.78422 F600.000
G1 X92.293 Y55.224 E1.82288
G1 X92.022 Y55.297 E1.83354
G1 X91.415 Y54.246 E1.87966
G1 F2220.000 E0.12966
G92 E0
G1 X92.022 Y84.703 F15000.000
G1 E1.75000 F2220.000
G1 X92.293 Y84.776 E1.76066 F600.000
G1 X92.293 Y85.793 E1.79933
G1 X91.393 Y85.793 E1.83355
G1 X91.999 Y84.742 E1.87967
G1 X92.750 Y86.250 F15000.000
G1 X47.250 Y86.250 E3.60896 F600.000
G1 X47.250 Y53.750 E4.84416
G1 X92.750 Y53.750 E6.57345
G1 X92.750 Y86.205 E7.80694
G1 X92.490 Y86.100 F15000.000
G1 F2220.000 E6.05694
G92 E0
G1 X87.064 Y84.902 F15000.000
G1 E1.75000 F2220.000
G1 X52.936 Y84.902 E3.04705 F960.000
G1 X53.746 Y83.500 E3.10856
G1 X52.525 Y81.385 E3.20137
G1 X65.236 Y81.390 E3.68449
G1 X72.726 Y81.367 E3.96916
G1 X76.527 Y81.319 E4.11363
G1 X77.801 Y81.218 E4.16220
G1 X78.569 Y80.051 E4.21527
G1 X78.727 Y79.548 E4.23534
G1 X79.257 Y79.111 E4.26142
G1 X79.839 Y79.079 E4.28356
G1 X80.411 Y79.361 E4.30781
G1 X81.225 Y80.783 E4.37007
G1 X82.735 Y81.321 E4.43102
G1 X83.881 Y81.415 E4.47469
G1 X86.536 Y81.317 E4.57567
G1 X87.486 Y81.366 E4.61184
G1 X86.254 Y83.500 E4.70548
G1 X87.041 Y84.863 E4.76528
G1 X86.269 Y84.443 F15000.000
G1 X53.731 Y84.443 E6.00194 F960.000
G1 X54.275 Y83.500 E6.04333
G1 X53.319 Y81.844 E6.11599
G1 X65.237 Y81.849 E6.56893
G1 X72.730 Y81.826 E6.85371
G1 X76.549 Y81.778 E6.99886
G1 X78.061 Y81.657 E7.05653
G1 X78.987 Y80.250 E7.12055
G1 X79.124 Y79.815 E7.13788
G1 X79.432 Y79.561 E7.15307
G1 X79.744 Y79.544 E7.16492
G1 X80.082 Y79.711 E7.17927
G1 X80.911 Y81.158 E7.24266
G1 X82.638 Y81.773 E7.31234
G1 X83.870 Y81.874 E7.35932
G1 X86.724 Y81.769 E7.46786
G1 X85.725 Y83.500 E7.54383
G1 X86.247 Y84.404 E7.58350
G1 X85.475 Y83.984 F15000.000
G1 X54.525 Y83.984 E8.75978 F960.000
G1 X54.805 Y83.500 E8.78103
G1 X54.114 Y82.303 E8.83355
G1 X65.237 Y82.308 E9.25632
G1 X72.733 Y82.284 E9.54121
G1 X76.570 Y82.236 E9.68702
G1 X78.321 Y82.096 E9.75380
G1 X79.405 Y80.449 E9.82877
G1 X79.608 Y79.805 E9.85440
G1 X80.597 Y81.533 E9.93009
G1 X82.541 Y82.225 E10.00849
G1 X83.860 Y82.334 E10.05879
G1 X85.912 Y82.258 E10.13685
G1 X85.195 Y83.500 E10.19135
G1 X85.452 Y83.945 E10.21090
G1 X84.651 Y83.526 F15000.000
G1 X55.349 Y83.526 E11.32454 F960.000
G1 X54.909 Y82.762 E11.35804
G1 X65.238 Y82.766 E11.75063
G1 X72.737 Y82.743 E12.03564
G1 X76.591 Y82.695 E12.18212
G1 X78.581 Y82.536 E12.25800
G1 X79.683 Y80.860 E12.33423
G1 X80.284 Y81.908 E12.38015
G1 X82.443 Y82.678 E12.46728
G1 X83.849 Y82.793 E12.52090
G1 X85.100 Y82.747 E12.56847
G1 X84.673 Y83.487 E12.60093
G1 F2220.000 E10.85093
G92 E0
G1 X81.035 Y83.067 F15000.000
G1 E1.75000 F2220.000
G1 X78.781 Y83.067 E1.83569 F960.000
G1 X79.656 Y81.736 E1.89625
G1 X79.970 Y82.284 E1.92024
G1 X81.101 Y82.686 E1.96588
G1 X81.043 Y83.023 E1.97884
G1 F2220.000 E0.22884
G92 E0
G1 X88.888 Y85.823 F15000.000
G1 E1.75000 F2220.000
G1 X91.112 Y85.823 E1.79819 F600.000
G1 F2220.000 E0.04819
G92 E0
G1 X90.086 Y80.677 F15000.000
G1 E1.75000 F2220.000
G1 X88.606 Y80.805 E1.78219 F600.000
G1 F2220.000 E0.03219
G92 E0
G1 X91.402 Y80.256 F15000.000
G1 E1.75000 F2220.000
G1 X90.798 Y80.256 E1.77292 F960.000
G1 X90.987 Y78.532 E1.83885
G1 X91.402 Y78.535 E1.85463
G1 X91.402 Y80.211 E1.91833
G1 F2220.000 E0.16833
G92 E0
G1 X91.226 Y78.100 F15000.000
G1 E1.75000 F2220.000
G1 X91.251 Y75.146 E1.92368 F600.000
G1 X91.227 Y74.162 E1.98150
G1 X91.227 Y63.566 E2.60449
G1 X91.205 Y62.802 E2.64944
G1 X91.238 Y61.991 E2.69717
G1 X91.237 Y60.980 E2.75663
G1 X91.402 Y60.545 F15000.000
G1 X90.970 Y60.546 E2.77302 F960.000
G1 X90.696 Y59.744 E2.80523
G1 X91.402 Y59.744 E2.83206
G1 X91.402 Y60.500 E2.86081
G1 F2220.000 E1.11081
G92 E0
G1 X89.829 Y59.257 F15000.000
G1 E1.75000 F2220.000
G1 X88.587 Y59.215 E1.77693 F600.000
G1 X87.475 Y58.615 F15000.000
G1 X85.870 Y58.584 E1.83795 F960.000
G1 X84.133 Y58.606 E1.90398
G1 X81.539 Y58.677 E2.00259
G1 X80.856 Y59.863 E2.05462
G1 X80.577 Y60.491 E2.08075
G1 X79.942 Y60.902 E2.10950
G1 X79.386 Y60.877 E2.13064
G1 X78.864 Y60.556 E2.15392
G1 X78.025 Y58.806 E2.22770
G1 X75.913 Y58.644 E2.30823
G1 X74.697 Y58.597 E2.35447
G1 X73.498 Y58.583 E2.40006
G1 X66.982 Y58.602 E2.64769
G1 X56.893 Y58.576 E3.03115
G1 X56.036 Y58.603 E3.06373
G1 X54.339 Y58.604 E3.12821
G1 X53.272 Y58.636 E3.16878
G1 X52.524 Y58.616 E3.19724
G1 X53.746 Y56.500 E3.29011
G1 X52.936 Y55.098 E3.35162
G1 X87.064 Y55.098 E4.64867
G1 X86.254 Y56.500 E4.71019
G1 X87.453 Y58.576 E4.80128
G1 X86.672 Y58.141 F15000.000
G1 X85.872 Y58.125 E4.83172 F960.000
G1 X84.124 Y58.148 E4.89815
G1 X81.270 Y58.225 E5.00664
G1 X80.446 Y59.655 E5.06935
G1 X80.213 Y60.181 E5.09121
G1 X79.816 Y60.437 E5.10918
G1 X79.525 Y60.424 E5.12025
G1 X79.219 Y60.236 E5.13389
G1 X78.324 Y58.369 E5.21260
G1 X75.939 Y58.186 E5.30352
G1 X74.709 Y58.139 E5.35032
G1 X73.500 Y58.125 E5.39627
G1 X66.982 Y58.143 E5.64399
G1 X56.886 Y58.118 E6.02769
G1 X56.029 Y58.144 E6.06030
G1 X54.332 Y58.145 E6.12478
G1 X53.307 Y58.176 E6.16375
G1 X54.275 Y56.500 E6.23731
G1 X53.731 Y55.557 E6.27870
G1 X86.269 Y55.557 E7.51538
G1 X85.725 Y56.500 E7.55677
G1 X86.650 Y58.102 E7.62707
G1 X85.869 Y57.667 F15000.000
G1 X84.115 Y57.689 E7.69376 F960.000
G1 X81.001 Y57.774 E7.81213
G1 X80.037 Y59.447 E7.88552
G1 X79.707 Y60.192 E7.91651
G1 X78.623 Y57.932 E8.01178
G1 X75.965 Y57.729 E8.11310
G1 X74.720 Y57.680 E8.16046
G1 X73.502 Y57.666 E8.20677
G1 X66.982 Y57.685 E8.45457
G1 X56.880 Y57.659 E8.83852
G1 X56.021 Y57.686 E8.87115
G1 X54.119 Y57.687 E8.94344
G1 X54.805 Y56.500 E8.99552
G1 X54.525 Y56.015 E9.01678
G1 X85.475 Y56.015 E10.19309
G1 X85.195 Y56.500 E10.21436
G1 X85.847 Y57.628 E10.26386
G1 X85.081 Y57.218 F15000.000
G1 X80.732 Y57.322 E10.42918 F960.000
G1 X79.699 Y59.115 E10.50781
G1 X78.922 Y57.495 E10.57609
G1 X75.992 Y57.271 E10.68780
G1 X74.732 Y57.222 E10.73572
G1 X73.504 Y57.208 E10.78239
G1 X66.982 Y57.226 E11.03027
G1 X56.873 Y57.201 E11.41447
G1 X56.014 Y57.227 E11.44712
G1 X54.914 Y57.228 E11.48895
G1 X55.349 Y56.474 E11.52203
G1 X84.651 Y56.474 E12.63568
G1 X85.058 Y57.179 E12.66664
G1 F2220.000 E10.91664
G92 E0
G1 X80.428 Y56.932 F15000.000
G1 E1.75000 F2220.000
G1 X79.736 Y58.132 E1.80262 F960.000
G1 X79.161 Y56.932 E1.85317
G1 X80.383 Y56.932 E1.89959
G1 F2220.000 E0.14959
G92 E0
G1 X88.888 Y54.177 F15000.000
G1 E1.75000 F2220.000
G1 X91.112 Y54.177 E1.79820 F600.000
G1 F2220.000 E0.04820
G92 E0
G1 X51.112 Y54.177 F15000.000
G1 E1.75000 F2220.000
G1 X48.888 Y54.177 E1.79820 F600.000
G1 F2220.000 E0.04820
G92 E0
G1 X48.121 Y58.778 F15000.000
G1 E1.75000 F2220.000
G1 X48.243 Y59.235 E1.77781 F600.000
G1 X48.305 Y59.388 E1.78754
G1 X48.305 Y80.612 E3.03533
G1 X48.243 Y80.765 E3.04506
G1 X48.121 Y81.222 E3.07287
G1 F2220.000 E1.32287
G92 E0
G1 X48.889 Y85.823 F15000.000
G1 E1.75000 F2220.000
G1 X51.112 Y85.823 E1.79819 F600.000
M140 S57 ; set bed temperature
G1 F2220.000 E0.04819
G92 E0
G1 Z0.400 F15000.000
G1 X92.073 Y83.500 F15000.000
G1 E1.75000 F2220.000
G1 X91.037 Y85.295 E1.80172 F1200.000
G1 X88.963 Y85.295 E1.85343
G1 X87.927 Y83.500 E1.90515
G1 X88.963 Y81.705 E1.95686
G1 X91.037 Y81.705 E2.00858
G1 X92.051 Y83.461 E2.05917
G1 X92.303 Y83.693 F15000.000
G1 F2220.000 E0.30917
G92 E0
G1 X92.073 Y56.500 F15000.000
G1 E1.75000 F2220.000
G1 X91.037 Y58.295 E1.80172 F1200.000
G1 X88.963 Y58.295 E1.85343
G1 X88.863 Y58.122 E1.85843
G1 X87.927 Y56.500 E1.90515
G1 X88.963 Y54.705 E1.95687
G1 X91.037 Y54.705 E2.00858
G1 X92.051 Y56.461 E2.05918
G1 X92.303 Y56.693 F15000.000
G1 F2220.000 E0.30918
G92 E0
G1 X52.073 Y56.500 F15000.000
G1 E1.75000 F2220.000
G1 X51.037 Y58.295 E1.80172 F1200.000
G1 X48.963 Y58.295 E1.85343
G1 X47.927 Y56.500 E1.90515
G1 X48.963 Y54.705 E1.95687
G1 X51.037 Y54.705 E2.00858
G1 X52.051 Y56.461 E2.05918
G1 X52.303 Y56.693 F15000.000
G1 F2220.000 E0.30918
G92 E0
G1 X48.860 Y59.446 F15000.000
