; generated by Slic3r 1.1.7 on 2015-04-22 at 22:04:15

; H-PLA-03-025-1

; perimeters extrusion width = 0.30mm
; infill extrusion width = 0.37mm
; solid infill extrusion width = 0.37mm
; top infill extrusion width = 0.37mm

G21 ; set units to millimeters
M190 S70 ; wait for bed temperature to be reached
M104 S200 ; set temperature
G28
G1 Z0.2 F200
G1 X15 Y20 F12000
M109 S200 ; wait for temperature to be reached
G90 ; use absolute coordinates
G92 E0
M82 ; use absolute distances for extrusion
G1 F2220.000 E-1.75000
G92 E0
G1 Z0.200 F15000.000
G1 X44.983 Y52.127 F15000.000
G1 E1.75000 F2220.000
G1 X45.985 Y51.262 E1.80033 F1200.000
G1 X47.000 Y51.043 E1.83978
G1 X93.000 Y51.043 E3.58807
G1 X94.331 Y51.435 E3.64081
G1 X95.238 Y52.485 E3.69355 F1200.000
G1 X95.457 Y53.500 E3.73301
G1 X95.457 Y86.500 E4.98721
G1 X95.065 Y87.831 E5.03995
G1 X94.015 Y88.738 E5.09270
G1 X93.000 Y88.957 E5.13215
G1 X47.000 Y88.957 E6.88044
G1 X45.669 Y88.565 E6.93318
G1 X44.762 Y87.515 E6.98592
G1 X44.543 Y86.500 E7.02537
G1 X44.543 Y53.500 E8.27958
G1 X44.949 Y52.157 E8.33291
G1 F2220.000 E6.58291
G92 E0
G1 X92.189 Y83.500 F15000.000
G1 E1.75000 F2220.000
G1 X91.094 Y85.395 E1.83318 F600.000
G1 X88.906 Y85.395 E1.91637
G1 X87.811 Y83.500 E1.99955
G1 X88.906 Y81.605 E2.08273
G1 X91.094 Y81.605 E2.16591
G1 X92.166 Y83.461 E2.24738
G1 X92.418 Y83.693 F15000.000
G1 F2220.000 E0.49738
G92 E0
G1 X92.189 Y56.500 F15000.000
G1 E1.75000 F2220.000
G1 X91.094 Y58.395 E1.83318 F600.000
G1 X88.906 Y58.395 E1.91637
G1 X88.824 Y58.254 E1.92256
G1 X87.811 Y56.500 E1.99955
G1 X88.906 Y54.605 E2.08273
G1 X91.094 Y54.605 E2.16592
G1 X92.166 Y56.461 E2.24739
G1 X92.418 Y56.693 F15000.000
G1 F2220.000 E0.49739
G92 E0
G1 X52.189 Y56.500 F15000.000
G1 E1.75000 F2220.000
G1 X51.094 Y58.395 E1.83318 F600.000
G1 X48.906 Y58.395 E1.91637
G1 X48.810 Y58.229 E1.92366
G1 X47.811 Y56.500 E1.99955
G1 X48.906 Y54.605 E2.08273
G1 X51.094 Y54.605 E2.16592
G1 X52.166 Y56.461 E2.24739
G1 X52.418 Y56.693 F15000.000
G1 F2220.000 E0.49739
G92 E0
G1 X49.403 Y59.489 F15000.000
G1 E1.75000 F2220.000
G1 X52.686 Y59.487 E1.87478 F600.000
G1 X53.772 Y59.528 E1.91607
G1 X54.852 Y59.495 E1.95714
G1 X56.551 Y59.494 E2.02172
G1 X57.405 Y59.468 E2.05421
G1 X67.483 Y59.493 E2.43722
G1 X73.994 Y59.475 E2.68469
G1 X75.175 Y59.488 E2.72956
G1 X76.362 Y59.534 E2.77470
G1 X77.944 Y59.655 E2.83502
G1 X78.674 Y61.178 E2.89922
G1 X79.616 Y61.757 E2.94124
G1 X80.687 Y61.805 E2.98196
G1 X81.666 Y61.172 E3.02625
G1 X81.829 Y60.988 E3.03561
G1 X81.978 Y60.688 E3.04835
G1 X82.154 Y60.262 E3.06587
G1 X82.562 Y59.554 E3.09693
G1 X84.651 Y59.497 E3.17633
G1 X86.367 Y59.475 E3.24158
G1 X88.085 Y59.508 E3.30686
G1 X90.224 Y59.656 E3.38835
G1 X90.730 Y61.134 E3.44773
G1 X90.680 Y61.134 E3.44960
G1 X90.682 Y61.964 E3.48115
G1 X90.614 Y62.789 E3.51260
G1 X90.661 Y63.588 E3.54303
G1 X90.661 Y74.172 E3.94527
G1 X90.694 Y75.998 E4.01472
G1 X90.663 Y77.862 E4.08554
G1 X90.405 Y80.232 E4.17616
G1 X88.925 Y80.488 E4.23324
G1 X87.935 Y80.474 E4.27086
G1 X87.042 Y80.425 E4.30486
G1 X84.401 Y80.523 E4.40528
G1 X83.425 Y80.442 E4.44252
G1 X82.334 Y80.054 E4.48651
G1 X81.549 Y78.682 E4.54659
G1 X80.523 Y78.176 E4.59006
G1 X79.416 Y78.237 E4.63221
G1 X78.523 Y78.973 E4.67619
G1 X78.406 Y79.187 E4.68545
G1 X78.256 Y79.665 E4.70448
G1 X77.796 Y80.364 E4.73629
G1 X76.986 Y80.428 E4.76715
G1 X73.220 Y80.476 E4.91033
G1 X65.735 Y80.499 E5.19479
G1 X49.403 Y80.493 E5.81551
G1 X49.403 Y59.534 E6.61209
G1 X49.860 Y59.946 F15000.000
G1 X52.678 Y59.944 E6.71919 F600.000
G1 X53.770 Y59.985 E6.76072
G1 X54.858 Y59.952 E6.80208
G1 X56.560 Y59.951 E6.86676
G1 X57.412 Y59.925 E6.89918
G1 X67.484 Y59.950 E7.28196
G1 X73.993 Y59.932 E7.52935
G1 X75.163 Y59.945 E7.57384
G1 X76.335 Y59.991 E7.61842
G1 X77.646 Y60.091 E7.66838
G1 X78.320 Y61.497 E7.72766
G1 X79.478 Y62.208 E7.77929
G1 X80.812 Y62.268 E7.83005
G1 X81.966 Y61.522 E7.88227
G1 X82.211 Y61.246 E7.89632
G1 X82.394 Y60.877 E7.91196
G1 X82.565 Y60.464 E7.92894
G1 X82.831 Y60.004 E7.94914
G1 X84.660 Y59.954 E8.01869
G1 X86.366 Y59.933 E8.08353
G1 X88.064 Y59.965 E8.14810
G1 X89.889 Y60.091 E8.21763
G1 X90.223 Y61.066 E8.25678
G1 X90.225 Y61.946 E8.29023
G1 X90.156 Y62.783 E8.32217
G1 X90.204 Y63.602 E8.35334
G1 X90.204 Y74.176 E8.75521
G1 X90.237 Y75.999 E8.82451
G1 X90.206 Y77.833 E8.89424
G1 X89.988 Y79.840 E8.97097
G1 X88.889 Y80.031 E9.01336
G1 X87.951 Y80.018 E9.04900
G1 X87.044 Y79.967 E9.08354
G1 X84.413 Y80.065 E9.18361
G1 X83.522 Y79.992 E9.21758
G1 X82.647 Y79.680 E9.25287
G1 X81.876 Y78.334 E9.31182
G1 X80.618 Y77.713 E9.36515
G1 X79.241 Y77.789 E9.41756
G1 X78.164 Y78.677 E9.47061
G1 X77.984 Y79.007 E9.48492
G1 X77.839 Y79.467 E9.50322
G1 X77.537 Y79.926 E9.52411
G1 X76.965 Y79.972 E9.54591
G1 X73.216 Y80.019 E9.68840
G1 X65.734 Y80.042 E9.97277
G1 X49.860 Y80.036 E10.57609
G1 X49.860 Y59.991 E11.33792
G1 X49.860 Y59.646 F15000.000
G1 F2220.000 E9.58792
G92 E0
G1 X47.811 Y83.500 F15000.000
G1 E1.75000 F2220.000
G1 X48.906 Y81.605 E1.83318 F600.000
G1 X51.094 Y81.605 E1.91637
G1 X51.190 Y81.771 E1.92366
G1 X52.189 Y83.500 E1.99955
G1 X51.094 Y85.395 E2.08273
G1 X48.906 Y85.395 E2.16591
G1 X47.834 Y83.539 E2.24738
G1 X47.582 Y83.307 F15000.000
G1 X47.978 Y84.703 F15000.000
G1 X48.607 Y85.793 E2.29522 F600.000
G1 X47.707 Y85.793 E2.32943
G1 X47.707 Y84.776 E2.36810
G1 X47.935 Y84.715 E2.37705
G1 F2220.000 E0.62705
G92 E0
G1 X47.978 Y55.297 F15000.000
G1 E1.75000 F2220.000
G1 X47.707 Y55.224 E1.76066 F600.000
G1 X47.707 Y54.207 E1.79933
G1 X48.607 Y54.207 E1.83354
G1 X48.001 Y55.258 E1.87966
G1 F2220.000 E0.12966
G92 E0
G1 X53.244 Y83.500 F15000.000
G1 E1.75000 F2220.000
G1 X51.772 Y80.950 E1.86190 F600.000
G1 X65.736 Y80.956 E2.39260
G1 X73.223 Y80.933 E2.67716
G1 X77.007 Y80.885 E2.82101
G1 X78.055 Y80.802 E2.86096
G1 X78.673 Y79.863 E2.90367
G1 X78.829 Y79.367 E2.92344
G1 X78.882 Y79.269 E2.92765
G1 X79.591 Y78.685 E2.96255
G1 X80.429 Y78.639 E2.99444
G1 X81.222 Y79.030 E3.02805
G1 X82.022 Y80.428 E3.08925
G1 X83.328 Y80.893 E3.14194
G1 X84.390 Y80.980 E3.18246
G1 X87.040 Y80.882 E3.28323
G1 X88.236 Y80.936 E3.32875
G1 X86.756 Y83.500 E3.44128
G1 X87.816 Y85.336 E3.52185
G1 X52.184 Y85.336 E4.87607
G1 X53.222 Y83.539 E4.95493
G1 F2220.000 E3.20493
G92 E0
G1 X91.370 Y61.591 F15000.000
G1 E1.75000 F2220.000
G1 X90.588 Y59.310 E1.84166 F600.000
G1 X91.836 Y59.310 E1.88908
G1 X91.836 Y80.690 E2.70169
G1 X90.814 Y80.690 E2.74051
G1 X91.120 Y77.890 E2.84756
G1 X91.151 Y75.998 E2.91949
G1 X91.118 Y74.168 E2.98907
G1 X91.118 Y63.574 E3.39170
G1 X91.072 Y62.794 E3.42138
G1 X91.139 Y61.983 E3.45234
G1 X91.139 Y61.591 E3.46722
G1 X91.325 Y61.591 E3.47429
G1 F2220.000 E1.72429
G92 E0
G1 X86.756 Y56.500 F15000.000
G1 E1.75000 F2220.000
G1 X88.230 Y59.054 E1.86208 F600.000
G1 X86.369 Y59.018 E1.93284
G1 X84.642 Y59.040 E1.99849
G1 X82.294 Y59.104 E2.08774
G1 X81.743 Y60.059 E2.12965
G1 X81.446 Y60.731 E2.15755
G1 X81.365 Y60.822 E2.16221
G1 X80.561 Y61.342 E2.19858
G1 X79.755 Y61.306 E2.22926
G1 X79.028 Y60.859 E2.26167
G1 X78.242 Y59.220 E2.33078
G1 X76.388 Y59.078 E2.40147
G1 X75.186 Y59.031 E2.44717
G1 X73.996 Y59.017 E2.49242
G1 X67.482 Y59.036 E2.73998
G1 X57.399 Y59.011 E3.12320
G1 X56.543 Y59.037 E3.15576
G1 X54.846 Y59.038 E3.22025
G1 X53.773 Y59.071 E3.26104
G1 X52.694 Y59.030 E3.30207
G1 X51.783 Y59.032 E3.33672
G1 X53.244 Y56.500 E3.44783
G1 X52.184 Y54.664 E3.52840
G1 X87.816 Y54.664 E4.88262
G1 X86.778 Y56.461 E4.96147
G1 F2220.000 E3.21147
G92 E0
G1 X48.946 Y59.310 F15000.000
G1 E1.75000 F2220.000
G1 X48.946 Y80.690 E2.56261 F600.000
G1 X48.164 Y80.690 E2.59232
G1 X48.164 Y59.310 E3.40492
G1 X48.901 Y59.310 E3.43292
G1 F2220.000 E1.68292
G92 E0
G1 X52.716 Y56.500 F15000.000
G1 E1.75000 F2220.000
G1 X51.393 Y54.207 E1.85063 F600.000
G1 X88.607 Y54.207 E3.26502
G1 X87.284 Y56.500 E3.36565
G1 X88.642 Y58.853 E3.46889
G1 X91.358 Y58.853 E3.57214
G1 X92.022 Y57.703 E3.62258
G1 X92.293 Y57.776 E3.63325
G1 X92.293 Y82.224 E4.56245
G1 X92.022 Y82.297 E4.57312
G1 X91.358 Y81.148 E4.62356
G1 X88.642 Y81.148 E4.72681
G1 X87.284 Y83.500 E4.83005
G1 X88.607 Y85.793 E4.93068
G1 X51.393 Y85.793 E6.34507
G1 X52.716 Y83.500 E6.44570
G1 X51.358 Y81.148 E6.54894
G1 X48.642 Y81.148 E6.65218
G1 X47.978 Y82.297 E6.70263
G1 X47.707 Y82.224 E6.71329
G1 X47.707 Y57.776 E7.64250
G1 X47.978 Y57.703 E7.65317
G1 X48.642 Y58.853 E7.70361
G1 X51.358 Y58.853 E7.80685
G1 X52.694 Y56.539 E7.90839
G1 F2220.000 E6.15839
G92 E0
G1 X91.393 Y54.207 F15000.000
G1 E1.75000 F2220.000
G1 X92.293 Y54.207 E1.78422 F600.000
G1 X92.293 Y55.224 E1.82288
G1 X92.022 Y55.297 E1.83354
G1 X91.415 Y54.246 E1.87966
G1 F2220.000 E0.12966
G92 E0
G1 X92.022 Y84.703 F15000.000
G1 E1.75000 F2220.000
G1 X92.293 Y84.776 E1.76066 F600.000
G1 X92.293 Y85.793 E1.79933
G1 X91.393 Y85.793 E1.83355
G1 X91.999 Y84.742 E1.87967
G1 X92.750 Y86.250 F15000.000
G1 X47.250 Y86.250 E3.60896 F600.000
G1 X47.250 Y53.750 E4.84416
G1 X92.750 Y53.750 E6.57345
G1 X92.750 Y86.205 E7.80694
G1 X92.490 Y86.100 F15000.000
G1 F2220.000 E6.05694
G92 E0
G1 X87.064 Y84.902 F15000.000
G1 E1.75000 F2220.000
G1 X52.936 Y84.902 E3.04705 F960.000
G1 X53.746 Y83.500 E3.10856
G1 X52.524 Y81.385 E3.20139
G1 X65.736 Y81.390 E3.70352
G1 X73.226 Y81.367 E3.98820
G1 X77.027 Y81.319 E4.13268
G1 X78.301 Y81.218 E4.18124
G1 X79.069 Y80.051 E4.23432
G1 X79.227 Y79.548 E4.25438
G1 X79.757 Y79.111 E4.28046
G1 X80.339 Y79.079 E4.30260
G1 X80.911 Y79.361 E4.32685
G1 X81.725 Y80.783 E4.38911
G1 X83.235 Y81.321 E4.45006
G1 X84.380 Y81.415 E4.49373
G1 X87.038 Y81.317 E4.59480
G1 X87.503 Y81.338 E4.61248
G1 X86.254 Y83.500 E4.70738
G1 X87.041 Y84.863 E4.76718
G1 X86.269 Y84.443 F15000.000
G1 X53.731 Y84.443 E6.00382 F960.000
G1 X54.275 Y83.500 E6.04519
G1 X53.319 Y81.844 E6.11787
G1 X65.737 Y81.849 E6.58981
G1 X73.230 Y81.826 E6.87460
G1 X77.049 Y81.778 E7.01974
G1 X78.561 Y81.657 E7.07742
G1 X79.487 Y80.250 E7.14145
G1 X79.624 Y79.815 E7.15877
G1 X79.932 Y79.561 E7.17396
G1 X80.244 Y79.544 E7.18580
G1 X80.582 Y79.711 E7.20015
G1 X81.411 Y81.158 E7.26354
G1 X83.138 Y81.773 E7.33322
G1 X84.370 Y81.875 E7.38021
G1 X86.713 Y81.788 E7.46931
G1 X85.725 Y83.500 E7.54443
G1 X86.246 Y84.404 E7.58410
G1 X85.474 Y83.984 F15000.000
G1 X54.526 Y83.984 E8.76033 F960.000
G1 X54.805 Y83.500 E8.78157
G1 X54.114 Y82.303 E8.83409
G1 X65.737 Y82.308 E9.27585
G1 X73.233 Y82.285 E9.56074
G1 X77.070 Y82.236 E9.70656
G1 X78.821 Y82.097 E9.77334
G1 X79.905 Y80.449 E9.84832
G1 X80.108 Y79.806 E9.87392
G1 X81.097 Y81.534 E9.94958
G1 X83.041 Y82.226 E10.02799
G1 X84.360 Y82.334 E10.07829
G1 X85.901 Y82.277 E10.13690
G1 X85.195 Y83.500 E10.19056
G1 X85.452 Y83.945 E10.21009
G1 X84.650 Y83.525 F15000.000
G1 X55.350 Y83.525 E11.32370 F960.000
G1 X54.909 Y82.762 E11.35718
G1 X65.738 Y82.767 E11.76874
G1 X73.237 Y82.743 E12.05375
G1 X77.091 Y82.695 E12.20023
G1 X79.081 Y82.536 E12.27613
G1 X80.183 Y80.861 E12.35234
G1 X80.783 Y81.909 E12.39823
G1 X82.943 Y82.678 E12.48537
G1 X84.349 Y82.794 E12.53899
G1 X85.088 Y82.766 E12.56710
G1 X84.673 Y83.486 E12.59869
G1 F2220.000 E10.84869
G92 E0
G1 X81.531 Y83.066 F15000.000
G1 E1.75000 F2220.000
G1 X79.282 Y83.066 E1.83547 F960.000
G1 X80.156 Y81.737 E1.89593
G1 X80.469 Y82.284 E1.91988
G1 X81.597 Y82.686 E1.96536
G1 X81.539 Y83.022 E1.97833
G1 F2220.000 E0.22833
G92 E0
G1 X88.888 Y85.823 F15000.000
G1 E1.75000 F2220.000
G1 X91.112 Y85.823 E1.79819 F600.000
G1 F2220.000 E0.04819
G92 E0
G1 X90.586 Y80.677 F15000.000
G1 E1.75000 F2220.000
G1 X89.106 Y80.805 E1.78219 F600.000
G1 F2220.000 E0.03219
G92 E0
G1 X91.371 Y79.876 F15000.000
G1 E1.75000 F2220.000
G1 X91.477 Y77.919 E1.79250 F600.000
G1 X91.483 Y77.231 E1.80742
G1 F2220.000 E0.05742
G92 E0
G1 X91.483 Y74.881 F15000.000
G1 E1.75000 F2220.000
G1 X91.477 Y63.567 E1.99530 F600.000
G1 X91.454 Y62.799 E2.01195
G1 X91.487 Y62.001 E2.02927
G1 X91.402 Y60.345 F15000.000
G1 X91.196 Y59.744 E2.05341 F960.000
G1 X91.402 Y59.744 E2.06124
G1 X91.402 Y60.300 E2.08237
G1 X90.329 Y59.257 F15000.000
G1 X88.715 Y59.202 E2.11737 F600.000
G1 X87.470 Y58.605 F15000.000
G1 X86.370 Y58.584 E2.15917 F960.000
G1 X84.633 Y58.606 E2.22520
G1 X82.039 Y58.677 E2.32380
G1 X81.356 Y59.863 E2.37583
G1 X81.077 Y60.491 E2.40197
G1 X80.442 Y60.902 E2.43072
G1 X79.886 Y60.877 E2.45186
G1 X79.364 Y60.556 E2.47514
G1 X78.525 Y58.806 E2.54891
G1 X76.413 Y58.644 E2.62944
G1 X75.197 Y58.597 E2.67568
G1 X73.998 Y58.583 E2.72127
G1 X67.482 Y58.602 E2.96891
G1 X57.393 Y58.576 E3.35237
G1 X56.536 Y58.603 E3.38494
G1 X54.839 Y58.604 E3.44943
G1 X53.775 Y58.636 E3.48990
G1 X52.535 Y58.596 E3.53703
G1 X53.746 Y56.500 E3.62903
G1 X52.936 Y55.098 E3.69054
G1 X87.064 Y55.098 E4.98759
G1 X86.254 Y56.500 E5.04910
G1 X87.447 Y58.566 E5.13977
G1 X86.662 Y58.122 F15000.000
G1 X84.624 Y58.148 E5.21723 F960.000
G1 X81.770 Y58.225 E5.32571
G1 X80.946 Y59.655 E5.38842
G1 X80.714 Y60.181 E5.41028
G1 X80.316 Y60.437 E5.42826
G1 X80.025 Y60.424 E5.43933
G1 X79.719 Y60.236 E5.45297
G1 X78.824 Y58.369 E5.53168
G1 X76.439 Y58.187 E5.62260
G1 X75.209 Y58.139 E5.66940
G1 X74.000 Y58.125 E5.71535
G1 X67.482 Y58.143 E5.96306
G1 X57.386 Y58.118 E6.34677
G1 X56.529 Y58.145 E6.37937
G1 X54.832 Y58.145 E6.44385
G1 X53.776 Y58.177 E6.48400
G1 X53.316 Y58.160 E6.50149
G1 X54.275 Y56.500 E6.57435
G1 X53.730 Y55.557 E6.61575
G1 X86.270 Y55.557 E7.85246
G1 X85.725 Y56.500 E7.89385
G1 X86.639 Y58.083 E7.96333
G1 X85.873 Y57.674 F15000.000
G1 X84.615 Y57.689 E8.01117 F960.000
G1 X81.502 Y57.774 E8.12953
G1 X80.537 Y59.447 E8.20292
G1 X80.207 Y60.193 E8.23394
G1 X79.123 Y57.932 E8.32923
G1 X76.465 Y57.729 E8.43054
G1 X75.220 Y57.681 E8.47790
G1 X74.002 Y57.667 E8.52421
G1 X67.482 Y57.685 E8.77201
G1 X57.380 Y57.660 E9.15596
G1 X56.521 Y57.686 E9.18859
G1 X54.825 Y57.687 E9.25306
G1 X54.106 Y57.709 E9.28040
G1 X54.804 Y56.500 E9.33345
G1 X54.524 Y56.015 E9.35473
G1 X85.476 Y56.015 E10.53109
G1 X85.196 Y56.500 E10.55237
G1 X85.851 Y57.635 E10.60217
G1 X85.085 Y57.225 F15000.000
G1 X81.233 Y57.323 E10.74864 F960.000
G1 X80.199 Y59.116 E10.82730
G1 X79.422 Y57.495 E10.89560
G1 X76.492 Y57.271 E11.00730
G1 X75.232 Y57.223 E11.05522
G1 X74.004 Y57.208 E11.10190
G1 X67.482 Y57.227 E11.34977
G1 X57.373 Y57.201 E11.73397
G1 X56.514 Y57.228 E11.76662
G1 X54.913 Y57.229 E11.82749
G1 X55.349 Y56.473 E11.86064
G1 X84.651 Y56.473 E12.97432
G1 X85.063 Y57.186 E13.00560
G1 F2220.000 E11.25560
G92 E0
G1 X80.929 Y56.932 F15000.000
G1 E1.75000 F2220.000
G1 X80.236 Y58.133 E1.80272 F960.000
G1 X79.660 Y56.932 E1.85337
G1 X80.884 Y56.932 E1.89988
G1 F2220.000 E0.14988
G92 E0
G1 X88.888 Y54.177 F15000.000
G1 E1.75000 F2220.000
G1 X91.112 Y54.177 E1.79820 F600.000
G1 F2220.000 E0.04820
G92 E0
G1 X51.112 Y54.177 F15000.000
G1 E1.75000 F2220.000
G1 X48.888 Y54.177 E1.79820 F600.000
G1 F2220.000 E0.04820
G92 E0
G1 X48.555 Y59.538 F15000.000
G1 E1.75000 F2220.000
G1 X48.555 Y80.462 E2.20362 F600.000
G1 F2220.000 E0.45362
G92 E0
G1 X48.889 Y85.823 F15000.000
G1 E1.75000 F2220.000
G1 X51.112 Y85.823 E1.79819 F600.000
M140 S57 ; set bed temperature
G1 F2220.000 E0.04819
G92 E0
G1 Z0.400 F15000.000
G1 X92.073 Y83.500 F15000.000
G1 E1.75000 F2220.000
G1 X91.037 Y85.295 E1.80172 F1200.000
G1 X88.963 Y85.295 E1.85343
G1 X87.927 Y83.500 E1.90515
G1 X88.963 Y81.705 E1.95686
G1 X91.037 Y81.705 E2.00858
G1 X92.051 Y83.461 E2.05917
G1 X92.303 Y83.693 F15000.000
G1 F2220.000 E0.30917
G92 E0
G1 X92.073 Y56.500 F15000.000
G1 E1.75000 F2220.000
G1 X91.037 Y58.295 E1.80172 F1200.000
G1 X88.963 Y58.295 E1.85343
G1 X88.863 Y58.122 E1.85843
G1 X87.927 Y56.500 E1.90515
G1 X88.963 Y54.705 E1.95687
G1 X91.037 Y54.705 E2.00858
G1 X92.051 Y56.461 E2.05918
G1 X92.303 Y56.693 F15000.000
G1 F2220.000 E0.30918
G92 E0
G1 X52.073 Y56.500 F15000.000
G1 E1.75000 F2220.000
G1 X51.037 Y58.295 E1.80172 F1200.000
G1 X48.963 Y58.295 E1.85343
G1 X47.927 Y56.500 E1.90515
G1 X48.963 Y54.705 E1.95687
G1 X51.037 Y54.705 E2.00858
G1 X52.051 Y56.461 E2.05918
G1 X52.303 Y56.693 F15000.000
G1 F2220.000 E0.30918
G92 E0
G1 X49.360 Y59.446 F15000.000
G1 E1.75000 F2220.000
G1 X52.687 Y59.444 E1.83299 F1200.000
G1 X53.772 Y59.485 E1.86007
