; generated by Slic3r 1.1.7 on 2015-04-22 at 11:51:24

; H-PLA-03-025-1

; perimeters extrusion width = 0.30mm
; infill extrusion width = 0.37mm
; solid infill extrusion width = 0.37mm
; top infill extrusion width = 0.37mm

G21 ; set units to millimeters
M190 S70 ; wait for bed temperature to be reached
M104 S200 ; set temperature
G28
G1 Z0.2 F200
G1 X15 Y20 F12000
M109 S200 ; wait for temperature to be reached
G90 ; use absolute coordinates
G92 E0
M82 ; use absolute distances for extrusion
G1 F2220.000 E-1.75000
G92 E0
G1 Z0.200 F15000.000
G1 X44.983 Y52.127 F15000.000
G1 E1.75000 F2220.000
G1 X45.985 Y51.262 E1.80033 F1200.000
G1 X47.000 Y51.043 E1.83978
G1 X93.000 Y51.043 E3.58807
G1 X94.331 Y51.435 E3.64081
G1 X95.238 Y52.485 E3.69355 F1200.000
G1 X95.457 Y53.500 E3.73301
G1 X95.457 Y86.500 E4.98721
G1 X95.065 Y87.831 E5.03995
G1 X94.015 Y88.738 E5.09270
G1 X93.000 Y88.957 E5.13215
G1 X47.000 Y88.957 E6.88044
G1 X45.669 Y88.565 E6.93318
G1 X44.762 Y87.515 E6.98592
G1 X44.543 Y86.500 E7.02537
G1 X44.543 Y53.500 E8.27958
G1 X44.949 Y52.157 E8.33291
G1 F2220.000 E6.58291
G92 E0
G1 X92.089 Y83.500 F15000.000
G1 E1.75000 F2220.000
G1 X91.044 Y85.309 E1.82938 F600.000
G1 X88.956 Y85.309 E1.90876
G1 X87.911 Y83.500 E1.98815
G1 X88.956 Y81.691 E2.06753
G1 X91.044 Y81.691 E2.14691
G1 X92.066 Y83.461 E2.22458
G1 X92.318 Y83.693 F15000.000
G1 F2220.000 E0.47458
G92 E0
G1 X88.054 Y56.747 F15000.000
G1 E1.75000 F2220.000
G1 X87.769 Y56.747 E1.76084 F600.000
G1 X88.956 Y54.691 E1.85105
G1 X91.044 Y54.691 E1.93044
G1 X91.946 Y56.253 E1.99899
G1 X92.231 Y56.253 E2.00982
G1 X91.044 Y58.309 E2.10004
G1 X88.956 Y58.309 E2.17942
G1 X88.076 Y56.786 E2.24626
G1 X87.835 Y56.930 F15000.000
G1 F2220.000 E0.49626
G92 E0
G1 X48.054 Y56.747 F15000.000
G1 E1.75000 F2220.000
G1 X47.769 Y56.747 E1.76084 F600.000
G1 X48.956 Y54.691 E1.85105
G1 X51.044 Y54.691 E1.93044
G1 X52.089 Y56.500 E2.00982
G1 X51.044 Y58.309 E2.08920
G1 X48.956 Y58.309 E2.16859
G1 X48.076 Y56.786 E2.23542
G1 X47.835 Y56.930 F15000.000
G1 F2220.000 E0.48542
G92 E0
G1 X48.903 Y59.489 F15000.000
G1 E1.75000 F2220.000
G1 X52.186 Y59.487 E1.87478 F600.000
G1 X53.272 Y59.528 E1.91607
G1 X54.352 Y59.495 E1.95714
G1 X56.051 Y59.494 E2.02173
G1 X56.905 Y59.468 E2.05421
G1 X66.983 Y59.493 E2.43722
G1 X74.126 Y59.471 E2.70871
G1 X75.862 Y59.534 E2.77471
G1 X77.444 Y59.655 E2.83503
G1 X78.174 Y61.178 E2.89923
G1 X79.116 Y61.757 E2.94124
G1 X80.187 Y61.805 E2.98196
G1 X81.166 Y61.172 E3.02626
G1 X81.329 Y60.988 E3.03561
G1 X81.478 Y60.688 E3.04836
G1 X81.654 Y60.262 E3.06588
G1 X82.062 Y59.554 E3.09694
G1 X84.151 Y59.497 E3.17634
G1 X85.867 Y59.475 E3.24158
G1 X87.585 Y59.508 E3.30686
G1 X89.724 Y59.656 E3.38836
G1 X90.180 Y60.989 E3.44190
G1 X90.182 Y61.964 E3.47897
G1 X90.114 Y62.789 E3.51042
G1 X90.161 Y63.588 E3.54084
G1 X90.161 Y74.172 E3.94309
G1 X90.194 Y75.998 E4.01253
G1 X90.163 Y77.862 E4.08336
G1 X89.905 Y80.232 E4.17397
G1 X88.425 Y80.488 E4.23105
G1 X87.435 Y80.474 E4.26867
G1 X86.542 Y80.425 E4.30268
G1 X83.901 Y80.523 E4.40309
G1 X82.925 Y80.442 E4.44034
G1 X81.834 Y80.054 E4.48433
G1 X81.049 Y78.682 E4.54440
G1 X80.023 Y78.176 E4.58787
G1 X78.916 Y78.237 E4.63002
G1 X78.023 Y78.973 E4.67400
G1 X77.906 Y79.187 E4.68326
G1 X77.756 Y79.665 E4.70230
G1 X77.296 Y80.364 E4.73410
G1 X76.486 Y80.428 E4.76497
G1 X72.720 Y80.476 E4.90814
G1 X65.235 Y80.499 E5.19261
G1 X48.903 Y80.493 E5.81333
G1 X48.903 Y59.534 E6.60990
G1 X49.360 Y59.946 F15000.000
G1 X52.178 Y59.944 E6.71700 F600.000
G1 X53.270 Y59.985 E6.75854
G1 X54.358 Y59.952 E6.79990
G1 X56.060 Y59.951 E6.86457
G1 X56.912 Y59.925 E6.89699
G1 X66.984 Y59.950 E7.27977
G1 X73.669 Y59.931 E7.53387
G1 X74.663 Y59.945 E7.57165
G1 X75.835 Y59.991 E7.61623
G1 X77.146 Y60.091 E7.66619
G1 X77.820 Y61.497 E7.72548
G1 X78.978 Y62.208 E7.77710
G1 X80.312 Y62.268 E7.82786
G1 X81.466 Y61.522 E7.88009
G1 X81.711 Y61.246 E7.89413
G1 X81.894 Y60.877 E7.90978
G1 X82.065 Y60.464 E7.92675
G1 X82.331 Y60.004 E7.94696
G1 X84.160 Y59.954 E8.01650
G1 X85.866 Y59.933 E8.08135
G1 X87.564 Y59.965 E8.14592
G1 X89.389 Y60.091 E8.21545
G1 X89.723 Y61.066 E8.25459
G1 X89.725 Y61.946 E8.28804
G1 X89.656 Y62.783 E8.31999
G1 X89.704 Y63.602 E8.35115
G1 X89.704 Y74.176 E8.75302
G1 X89.737 Y75.999 E8.82233
G1 X89.706 Y77.833 E8.89205
G1 X89.488 Y79.840 E8.96879
G1 X88.389 Y80.031 E9.01118
G1 X87.451 Y80.018 E9.04682
G1 X86.544 Y79.967 E9.08136
G1 X83.913 Y80.065 E9.18142
G1 X83.022 Y79.992 E9.21539
G1 X82.147 Y79.680 E9.25068
G1 X81.376 Y78.334 E9.30963
G1 X80.118 Y77.713 E9.36296
G1 X78.741 Y77.789 E9.41538
G1 X77.664 Y78.677 E9.46842
G1 X77.484 Y79.007 E9.48274
G1 X77.339 Y79.467 E9.50104
G1 X77.037 Y79.926 E9.52193
G1 X76.465 Y79.972 E9.54372
G1 X72.716 Y80.019 E9.68622
G1 X65.234 Y80.042 E9.97058
G1 X49.360 Y80.036 E10.57391
G1 X49.360 Y59.991 E11.33574
G1 X49.360 Y59.646 F15000.000
G1 F2220.000 E9.58574
G92 E0
G1 X47.911 Y83.500 F15000.000
G1 E1.75000 F2220.000
G1 X48.956 Y81.691 E1.82938 F600.000
G1 X51.044 Y81.691 E1.90876
G1 X52.089 Y83.500 E1.98814
G1 X51.044 Y85.309 E2.06753
G1 X48.956 Y85.309 E2.14691
G1 X47.934 Y83.539 E2.22458
G1 X47.682 Y83.307 F15000.000
G1 X47.978 Y84.530 F15000.000
G1 X48.707 Y85.793 E2.28001 F600.000
G1 X47.707 Y85.793 E2.31803
G1 X47.707 Y84.602 E2.36328
G1 X47.935 Y84.541 E2.37223
G1 F2220.000 E0.62223
G92 E0
G1 X47.978 Y55.470 F15000.000
G1 E1.75000 F2220.000
G1 X47.707 Y55.398 E1.76066 F600.000
G1 X47.707 Y54.207 E1.80591
G1 X48.707 Y54.207 E1.84393
G1 X48.001 Y55.431 E1.89765
G1 F2220.000 E0.14765
G92 E0
G1 X77.555 Y80.802 F15000.000
G1 E1.75000 F2220.000
G1 X78.173 Y79.863 E1.79271 F600.000
G1 X78.329 Y79.367 E1.81248
G1 X78.382 Y79.269 E1.81669
G1 X79.091 Y78.685 E1.85160
G1 X79.929 Y78.639 E1.88349
G1 X80.722 Y79.030 E1.91710
G1 X81.522 Y80.428 E1.97830
G1 X82.828 Y80.893 E2.03098
G1 X83.890 Y80.980 E2.07151
G1 X86.540 Y80.882 E2.17227
G1 X87.419 Y80.931 E2.20575
G1 X88.331 Y80.944 E2.24042
G1 X86.856 Y83.500 E2.35259
G1 X87.916 Y85.336 E2.43316
G1 X52.084 Y85.336 E3.79498
G1 X53.144 Y83.500 E3.87555
G1 X51.672 Y80.950 E3.98744
G1 X65.236 Y80.956 E4.50294
G1 X72.723 Y80.933 E4.78751
G1 X76.507 Y80.885 E4.93135
G1 X77.510 Y80.805 E4.96959
G1 F2220.000 E3.21959
G92 E0
G1 X90.305 Y80.777 F15000.000
G1 E1.75000 F2220.000
G1 X90.620 Y77.890 E1.86036 F600.000
G1 X90.651 Y75.998 E1.93229
G1 X90.618 Y74.168 E2.00187
G1 X90.618 Y63.574 E2.40450
G1 X90.572 Y62.794 E2.43418
G1 X90.639 Y61.983 E2.46514
G1 X90.637 Y60.912 E2.50582
G1 X90.058 Y59.223 E2.57368
G1 X91.836 Y59.223 E2.64124
G1 X91.836 Y80.777 E3.46043
G1 X90.350 Y80.777 E3.51690
G1 F2220.000 E1.76690
G92 E0
G1 X81.794 Y59.104 F15000.000
G1 E1.75000 F2220.000
G1 X81.243 Y60.059 E1.79191 F600.000
G1 X80.946 Y60.731 E1.81982
G1 X80.865 Y60.822 E1.82447
G1 X80.061 Y61.342 E1.86085
G1 X79.255 Y61.306 E1.89152
G1 X78.528 Y60.859 E1.92393
G1 X77.742 Y59.220 E1.99304
G1 X75.888 Y59.078 E2.06373
G1 X74.583 Y59.027 E2.11334
G1 X74.583 Y59.012 E2.11393
G1 X66.982 Y59.036 E2.40283
G1 X56.899 Y59.011 E2.78606
G1 X56.043 Y59.037 E2.81861
G1 X54.346 Y59.038 E2.88310
G1 X53.273 Y59.071 E2.92388
G1 X52.194 Y59.030 E2.96492
G1 X51.683 Y59.031 E2.98436
G1 X53.144 Y56.500 E3.09543
G1 X52.084 Y54.664 E3.17600
G1 X87.916 Y54.664 E4.53782
G1 X86.185 Y57.661 E4.66934
G1 X87.526 Y57.661 E4.72029
G1 X88.359 Y59.104 E4.78360
G1 X87.605 Y59.051 E4.81233
G1 X85.869 Y59.018 E4.87832
G1 X84.142 Y59.040 E4.94397
G1 X81.839 Y59.103 E5.03151
G1 F2220.000 E3.28151
G92 E0
G1 X86.977 Y57.204 F15000.000
G1 E1.75000 F2220.000
G1 X87.790 Y57.204 E1.78089 F600.000
G1 X88.692 Y58.766 E1.84944
G1 X91.308 Y58.766 E1.94888
G1 X92.022 Y57.530 E2.00313
G1 X92.293 Y57.602 E2.01380
G1 X92.293 Y82.398 E2.95617
G1 X92.022 Y82.470 E2.96683
G1 X91.308 Y81.234 E3.02108
G1 X88.692 Y81.234 E3.12052
G1 X87.384 Y83.500 E3.21996
G1 X88.707 Y85.793 E3.32059
G1 X51.293 Y85.793 E4.74259
G1 X52.616 Y83.500 E4.84322
G1 X51.308 Y81.234 E4.94265
G1 X48.692 Y81.234 E5.04210
G1 X47.978 Y82.470 E5.09634
G1 X47.707 Y82.398 E5.10701
G1 X47.707 Y57.602 E6.04938
G1 X47.978 Y57.530 E6.06004
G1 X48.692 Y58.766 E6.11429
G1 X51.308 Y58.766 E6.21373
G1 X52.616 Y56.500 E6.31318
G1 X51.293 Y54.207 E6.41380
G1 X88.707 Y54.207 E7.83580
G1 X87.000 Y57.165 E7.96561
G1 F2220.000 E6.21561
G92 E0
G1 X91.293 Y54.207 F15000.000
G1 E1.75000 F2220.000
G1 X92.293 Y54.207 E1.78802 F600.000
G1 X92.293 Y55.398 E1.83326
G1 X92.022 Y55.470 E1.84393
G1 X91.315 Y54.246 E1.89765
G1 F2220.000 E0.14765
G92 E0
G1 X92.022 Y84.530 F15000.000
G1 E1.75000 F2220.000
G1 X92.293 Y84.602 E1.76066 F600.000
G1 X92.293 Y85.793 E1.80591
G1 X91.293 Y85.793 E1.84393
G1 X91.999 Y84.569 E1.89765
G1 F2220.000 E0.14765
G92 E0
G1 X92.750 Y86.250 F15000.000
G1 E1.75000 F2220.000
G1 X47.250 Y86.250 E3.47929 F600.000
G1 X47.250 Y53.750 E4.71449
G1 X92.750 Y53.750 E6.44378
G1 X92.750 Y86.205 E7.67728
G1 X92.490 Y86.100 F15000.000
G1 F2220.000 E5.92728
G92 E0
G1 X87.164 Y84.902 F15000.000
G1 E1.75000 F2220.000
G1 X52.836 Y84.902 E3.05465 F960.000
G1 X53.646 Y83.500 E3.11617
G1 X52.424 Y81.385 E3.20899
G1 X65.236 Y81.390 E3.69592
G1 X72.726 Y81.367 E3.98059
G1 X76.527 Y81.319 E4.12507
G1 X77.801 Y81.218 E4.17364
G1 X78.569 Y80.051 E4.22671
G1 X78.727 Y79.548 E4.24678
G1 X79.257 Y79.111 E4.27286
G1 X79.839 Y79.079 E4.29500
G1 X80.411 Y79.361 E4.31924
G1 X81.225 Y80.783 E4.38151
G1 X82.735 Y81.321 E4.44246
G1 X83.880 Y81.415 E4.48613
G1 X86.536 Y81.317 E4.58711
G1 X87.585 Y81.368 E4.62705
G1 X86.354 Y83.500 E4.72062
G1 X87.141 Y84.863 E4.78042
G1 X86.365 Y84.440 F15000.000
G1 X53.635 Y84.440 E6.02435 F960.000
G1 X54.178 Y83.500 E6.06563
G1 X53.224 Y81.846 E6.13819
G1 X65.237 Y81.852 E6.59477
G1 X72.730 Y81.828 E6.87956
G1 X76.549 Y81.780 E7.02471
G1 X78.063 Y81.660 E7.08243
G1 X78.989 Y80.251 E7.14652
G1 X79.126 Y79.817 E7.16382
G1 X79.433 Y79.563 E7.17896
G1 X79.743 Y79.546 E7.19075
G1 X80.080 Y79.713 E7.20504
G1 X80.909 Y81.160 E7.26844
G1 X82.638 Y81.776 E7.33817
G1 X83.870 Y81.877 E7.38517
G1 X86.822 Y81.768 E7.49742
G1 X85.822 Y83.500 E7.57343
G1 X86.342 Y84.401 E7.61299
G1 X85.566 Y83.979 F15000.000
G1 X54.434 Y83.979 E8.79619 F960.000
G1 X54.711 Y83.500 E8.81723
G1 X54.023 Y82.308 E8.86953
G1 X65.237 Y82.313 E9.29577
G1 X72.733 Y82.289 E9.58067
G1 X76.570 Y82.241 E9.72649
G1 X78.324 Y82.101 E9.79337
G1 X79.410 Y80.451 E9.86846
G1 X79.609 Y79.818 E9.89367
G1 X80.594 Y81.538 E9.96898
G1 X82.540 Y82.230 E10.04748
G1 X83.860 Y82.339 E10.09782
G1 X86.005 Y82.260 E10.17942
G1 X85.289 Y83.500 E10.23384
G1 X85.543 Y83.940 E10.25316
G1 X84.746 Y83.518 F15000.000
G1 X55.254 Y83.518 E11.37406 F960.000
G1 X54.822 Y82.770 E11.40690
G1 X65.238 Y82.774 E11.80279
G1 X72.737 Y82.751 E12.08780
G1 X76.591 Y82.702 E12.23429
G1 X78.586 Y82.543 E12.31033
G1 X79.683 Y80.875 E12.38622
G1 X80.278 Y81.915 E12.43177
G1 X82.442 Y82.685 E12.51905
G1 X83.849 Y82.801 E12.57272
G1 X85.189 Y82.752 E12.62367
G1 X84.769 Y83.479 E12.65559
G1 F2220.000 E10.90559
G92 E0
G1 X80.969 Y83.057 F15000.000
G1 E1.75000 F2220.000
G1 X78.800 Y83.057 E1.83244 F960.000
G1 X79.656 Y81.756 E1.89162
G1 X79.963 Y82.292 E1.91511
G1 X81.035 Y82.674 E1.95838
G1 X80.977 Y83.012 E1.97143
G1 F2220.000 E0.22143
G92 E0
G1 X88.963 Y85.779 F15000.000
G1 E1.75000 F2220.000
G1 X91.037 Y85.779 E1.79494 F600.000
G1 F2220.000 E0.04494
G92 E0
G1 X91.402 Y80.343 F15000.000
G1 E1.75000 F2220.000
G1 X90.789 Y80.343 E1.77328 F960.000
G1 X90.987 Y78.532 E1.84252
G1 X91.402 Y78.535 E1.85830
G1 X91.402 Y80.298 E1.92529
G1 F2220.000 E0.17529
G92 E0
G1 X91.226 Y78.100 F15000.000
G1 E1.75000 F2220.000
G1 X91.244 Y76.004 E1.87321 F600.000
G1 X91.227 Y74.162 E1.98149
G1 X91.227 Y63.566 E2.60448
G1 X91.205 Y62.802 E2.64943
G1 X91.238 Y61.991 E2.69715
G1 X91.237 Y60.980 E2.75662
G1 X91.402 Y60.545 F15000.000
G1 X90.970 Y60.546 E2.77301 F960.000
G1 X90.666 Y59.657 E2.80870
G1 X91.402 Y59.657 E2.83665
G1 X91.402 Y60.500 E2.86869
G1 F2220.000 E1.11869
G92 E0
G1 X89.814 Y59.214 F15000.000
G1 E1.75000 F2220.000
G1 X88.663 Y59.174 E1.77495 F600.000
G1 X87.576 Y58.617 F15000.000
G1 X85.870 Y58.584 E1.83981 F960.000
G1 X84.133 Y58.606 E1.90584
G1 X81.539 Y58.677 E2.00445
G1 X80.856 Y59.863 E2.05648
G1 X80.577 Y60.491 E2.08261
G1 X79.942 Y60.902 E2.11136
G1 X79.386 Y60.877 E2.13250
G1 X78.864 Y60.556 E2.15578
G1 X78.025 Y58.806 E2.22956
G1 X75.913 Y58.644 E2.31009
G1 X75.018 Y58.610 E2.34413
G1 X75.018 Y58.576 E2.34540
G1 X66.982 Y58.602 E2.65080
G1 X56.893 Y58.576 E3.03426
G1 X56.036 Y58.603 E3.06684
G1 X54.339 Y58.604 E3.13132
G1 X53.275 Y58.636 E3.17180
G1 X52.431 Y58.604 E3.20390
G1 X53.646 Y56.500 E3.29626
G1 X52.836 Y55.098 E3.35777
G1 X87.164 Y55.098 E4.66242
G1 X85.433 Y58.095 E4.79395
G1 X87.275 Y58.095 E4.86396
G1 X87.554 Y58.578 E4.88513
G1 F2220.000 E3.13513
G92 E0
G1 X84.878 Y58.136 F15000.000
G1 E1.75000 F2220.000
G1 X81.269 Y58.223 E1.88720 F960.000
G1 X80.444 Y59.654 E1.94997
G1 X80.212 Y60.179 E1.97180
G1 X79.816 Y60.435 E1.98972
G1 X79.526 Y60.422 E2.00073
G1 X79.221 Y60.235 E2.01432
G1 X78.326 Y58.366 E2.09306
G1 X75.939 Y58.184 E2.18404
G1 X75.479 Y58.166 E2.20155
G1 X75.479 Y58.114 E2.20354
G1 X66.982 Y58.141 E2.52647
G1 X56.886 Y58.115 E2.91017
G1 X56.029 Y58.142 E2.94277
G1 X54.332 Y58.143 E3.00725
G1 X53.210 Y58.177 E3.04993
G1 X54.178 Y56.500 E3.12351
G1 X53.635 Y55.559 E3.16479
G1 X86.365 Y55.559 E4.40874
G1 X84.900 Y58.097 E4.52009
G1 X84.610 Y57.678 F15000.000
G1 X80.998 Y57.769 E4.65738 F960.000
G1 X80.032 Y59.445 E4.73090
G1 X79.707 Y60.180 E4.76148
G1 X78.627 Y57.927 E4.85644
G1 X75.940 Y57.722 E4.95887
G1 X75.940 Y57.651 E4.96153
G1 X66.982 Y57.680 E5.30199
G1 X56.880 Y57.654 E5.68594
G1 X56.021 Y57.681 E5.71857
G1 X54.028 Y57.682 E5.79433
G1 X54.710 Y56.500 E5.84619
G1 X54.434 Y56.020 E5.86724
G1 X85.567 Y56.020 E7.05049
G1 X84.632 Y57.639 E7.12151
G1 X84.342 Y57.220 F15000.000
G1 X80.728 Y57.315 E7.25890 F960.000
G1 X79.699 Y59.099 E7.33715
G1 X78.927 Y57.488 E7.40505
G1 X76.401 Y57.294 E7.50136
G1 X76.401 Y57.189 E7.50537
G1 X66.982 Y57.219 E7.86336
G1 X56.873 Y57.193 E8.24755
G1 X56.014 Y57.220 E8.28020
G1 X54.827 Y57.220 E8.32533
G1 X55.253 Y56.481 E8.35775
G1 X84.768 Y56.481 E9.47949
G1 X84.364 Y57.181 E9.51020
G1 F2220.000 E7.76020
G92 E0
G1 X80.410 Y56.943 F15000.000
G1 E1.75000 F2220.000
G1 X79.737 Y58.110 E1.80123 F960.000
G1 X79.177 Y56.943 E1.85045
G1 X80.365 Y56.943 E1.89561
G1 F2220.000 E0.14561
G92 E0
G1 X88.963 Y54.221 F15000.000
G1 E1.75000 F2220.000
G1 X91.037 Y54.221 E1.79494 F600.000
G1 F2220.000 E0.04494
G92 E0
G1 X51.363 Y59.127 F15000.000
G1 E1.75000 F2220.000
G1 X48.674 Y59.128 E1.80830 F600.000
G1 X48.121 Y58.605 F15000.000
G1 X48.305 Y59.262 E1.84842 F600.000
G1 X48.305 Y80.738 E3.11109
G1 X48.121 Y81.395 E3.15121
G1 F2220.000 E1.40121
G92 E0
G1 X48.963 Y54.221 F15000.000
G1 E1.75000 F2220.000
G1 X51.037 Y54.221 E1.79494 F600.000
G1 F2220.000 E0.04494
G92 E0
G1 X51.358 Y80.864 F15000.000
G1 E1.75000 F2220.000
G1 X48.674 Y80.864 E1.80818 F600.000
G1 F2220.000 E0.05818
G92 E0
G1 X48.963 Y85.779 F15000.000
G1 E1.75000 F2220.000
G1 X51.037 Y85.779 E1.79494 F600.000
M140 S57 ; set bed temperature
G1 F2220.000 E0.04494
G92 E0
G1 Z0.400 F15000.000
G1 X92.320 Y83.500 F15000.000
G1 E1.75000 F2220.000
G1 X91.160 Y85.509 E1.80786 F1200.000
G1 X88.840 Y85.509 E1.86573
G1 X87.680 Y83.500 E1.92359
G1 X88.840 Y81.491 E1.98145
G1 X91.160 Y81.491 E2.03931
G1 X92.297 Y83.461 E2.09605
G1 X91.973 Y83.500 F15000.000
G1 X90.987 Y85.209 E2.14527 F1200.000
G1 X89.013 Y85.209 E2.19449
G1 X88.027 Y83.500 E2.24372
G1 X89.013 Y81.791 E2.29294
G1 X90.987 Y81.791 E2.34216
G1 X91.951 Y83.461 E2.39026
G1 X92.203 Y83.693 F15000.000
G1 F2220.000 E0.64026
G92 E0
G1 X91.160 Y58.509 F15000.000
G1 E1.75000 F2220.000
G1 X88.840 Y58.509 E1.80786 F1200.000
G1 X88.575 Y58.050 E1.82108
G1 X87.680 Y56.500 E1.86573
G1 X88.840 Y54.491 E1.92359
G1 X91.160 Y54.491 E1.98145
G1 X92.320 Y56.500 E2.03932
G1 X91.182 Y58.470 E2.09606
G1 X90.987 Y58.209 F15000.000
G1 X89.013 Y58.209 E2.14528 F1200.000
G1 X88.835 Y57.900 E2.15417
G1 X88.027 Y56.500 E2.19450
G1 X89.013 Y54.791 E2.24372
G1 X90.987 Y54.791 E2.29294
G1 X91.973 Y56.500 E2.34217
