; generated by Slic3r 1.1.7 on 2015-04-21 at 11:52:09

; H-PLA-03-025-1

; perimeters extrusion width = 0.30mm
; infill extrusion width = 0.37mm
; solid infill extrusion width = 0.37mm
; top infill extrusion width = 0.37mm

G21 ; set units to millimeters
M190 S70 ; wait for bed temperature to be reached
M104 S200 ; set temperature
G28
G1 Z0.2 F200
G1 X15 Y20 F12000
M109 S200 ; wait for temperature to be reached
G90 ; use absolute coordinates
G92 E0
M82 ; use absolute distances for extrusion
G1 F2220.000 E-1.75000
G92 E0
G1 Z0.200 F15000.000
G1 X52.831 Y50.548 F15000.000
G1 E1.75000 F2220.000
G1 X57.251 Y47.404 E1.95615 F1200.000
G1 X62.227 Y45.247 E2.16229
G1 X67.544 Y44.172 E2.36844
G1 X72.967 Y44.225 E2.57458
G1 X78.261 Y45.406 E2.78073 F1200.000
G1 X83.194 Y47.661 E2.98687
G1 X87.551 Y50.892 E3.19302
G1 X90.673 Y54.360 E3.37040
G1 X91.140 Y54.958 E3.39922
G1 X93.473 Y59.000 E3.57661
G1 X93.805 Y59.682 E3.60543
G1 X95.247 Y64.121 E3.78281
G1 X95.430 Y64.857 E3.81164
G1 X95.944 Y70.257 E4.01778
G1 X95.456 Y74.898 E4.19516
G1 X95.323 Y75.645 E4.22399
G1 X93.596 Y80.787 E4.43013
G1 X91.263 Y84.829 E4.60752
G1 X90.838 Y85.457 E4.63634
G1 X87.169 Y89.452 E4.84248
G1 X82.749 Y92.596 E5.04863
G1 X77.773 Y94.753 E5.25477
G1 X72.456 Y95.828 E5.46092
G1 X67.033 Y95.775 E5.66707
G1 X61.739 Y94.594 E5.87321
G1 X56.806 Y92.339 E6.07935
G1 X52.449 Y89.108 E6.28550
G1 X49.327 Y85.640 E6.46288
G1 X48.860 Y85.042 E6.49170
G1 X46.527 Y81.000 E6.66909
G1 X46.195 Y80.318 E6.69791
G1 X44.570 Y75.143 E6.90406
G1 X44.082 Y70.501 E7.08144
G1 X44.056 Y69.743 E7.11026
G1 X44.677 Y64.355 E7.31641
G1 X46.119 Y59.916 E7.49379
G1 X46.404 Y59.213 E7.52262
G1 X49.162 Y54.543 E7.72876
G1 X52.801 Y50.581 E7.93319
G1 F2220.000 E6.18319
G92 E0
G1 X61.016 Y57.165 F15000.000
G1 E1.75000 F2220.000
G1 X60.203 Y60.203 E1.86950 F600.000
G1 X57.165 Y61.016 E1.98901
G1 X54.942 Y58.793 E2.10851
G1 X55.756 Y55.756 E2.22801
G1 X58.793 Y54.942 E2.34751
G1 X60.985 Y57.134 E2.46531
G1 X60.507 Y57.302 F15000.000
G1 X59.829 Y59.829 E2.56475 F600.000
G1 X57.302 Y60.507 E2.66419
G1 X55.452 Y58.656 E2.76364
G1 X56.129 Y56.129 E2.86308
G1 X58.656 Y55.452 E2.96252
G1 X60.475 Y57.270 E3.06026
G1 X59.997 Y57.439 F15000.000
G1 X59.456 Y59.456 E3.13964 F600.000
G1 X57.439 Y59.997 E3.21903
G1 X55.962 Y58.520 E3.29841
G1 X56.502 Y56.502 E3.37779
G1 X58.520 Y55.962 E3.45718
G1 X59.965 Y57.407 E3.53485
G1 X60.269 Y57.565 F15000.000
G1 F2220.000 E1.78485
G92 E0
G1 X78.984 Y57.165 F15000.000
G1 E1.75000 F2220.000
G1 X81.207 Y54.942 E1.86950 F600.000
G1 X84.244 Y55.756 E1.98901
G1 X85.058 Y58.793 E2.10851
G1 X82.835 Y61.016 E2.22801
G1 X79.797 Y60.203 E2.34751
G1 X78.995 Y57.209 E2.46531
G1 X79.493 Y57.302 F15000.000
G1 X81.344 Y55.452 E2.56475 F600.000
G1 X83.871 Y56.129 E2.66419
G1 X84.548 Y58.656 E2.76364
G1 X82.698 Y60.507 E2.86308
G1 X80.171 Y59.829 E2.96252
G1 X79.505 Y57.345 E3.06026
G1 X80.003 Y57.439 F15000.000
G1 X81.480 Y55.962 E3.13964 F600.000
G1 X83.498 Y56.502 E3.21902
G1 X84.038 Y58.520 E3.29841
G1 X82.561 Y59.997 E3.37779
G1 X80.544 Y59.456 E3.45718
G1 X80.015 Y57.482 E3.53485
G1 X79.831 Y57.193 F15000.000
G1 F2220.000 E1.78485
G92 E0
G1 X82.835 Y78.984 F15000.000
G1 E1.75000 F2220.000
G1 X85.058 Y81.207 E1.86950 F600.000
G1 X84.244 Y84.244 E1.98901
G1 X81.207 Y85.058 E2.10851
G1 X78.984 Y82.835 E2.22801
G1 X79.797 Y79.797 E2.34751
G1 X82.791 Y78.995 E2.46531
G1 X82.698 Y79.493 F15000.000
G1 X84.548 Y81.344 E2.56475 F600.000
G1 X83.871 Y83.871 E2.66419
G1 X81.344 Y84.548 E2.76364
G1 X79.493 Y82.698 E2.86308
G1 X80.171 Y80.171 E2.96252
G1 X82.655 Y79.505 E3.06026
G1 X82.561 Y80.003 F15000.000
G1 X84.038 Y81.480 E3.13964 F600.000
G1 X83.498 Y83.498 E3.21902
G1 X81.480 Y84.038 E3.29841
G1 X80.003 Y82.561 E3.37779
G1 X80.544 Y80.544 E3.45717
G1 X82.518 Y80.015 E3.53485
G1 X82.807 Y79.831 F15000.000
G1 F2220.000 E1.78485
G92 E0
G1 X61.016 Y82.835 F15000.000
G1 E1.75000 F2220.000
G1 X58.793 Y85.058 E1.86950 F600.000
G1 X55.756 Y84.244 E1.98900
G1 X54.942 Y81.207 E2.10851
G1 X57.165 Y78.984 E2.22801
G1 X60.203 Y79.797 E2.34751
G1 X61.005 Y82.791 E2.46531
G1 X60.507 Y82.698 F15000.000
G1 X58.656 Y84.548 E2.56475 F600.000
G1 X56.129 Y83.871 E2.66419
G1 X55.452 Y81.344 E2.76364
G1 X57.302 Y79.493 E2.86308
G1 X59.829 Y80.171 E2.96252
G1 X60.495 Y82.655 E3.06025
G1 X59.997 Y82.561 F15000.000
G1 X58.520 Y84.038 E3.13964 F600.000
G1 X56.502 Y83.498 E3.21902
G1 X55.962 Y81.480 E3.29841
G1 X57.439 Y80.003 E3.37779
G1 X59.456 Y80.544 E3.45717
G1 X59.985 Y82.518 E3.53485
G1 X60.169 Y82.807 F15000.000
G1 F2220.000 E1.78485
G92 E0
G1 X56.373 Y87.549 F15000.000
G1 E1.75000 F2220.000
G1 X55.059 Y86.594 E1.81175 F600.000
G1 X51.935 Y83.125 E1.98917
G1 X49.601 Y79.082 E2.16658
G1 X48.158 Y74.643 E2.34400
G1 X47.671 Y70.000 E2.52142
G1 X48.158 Y65.357 E2.69884
G1 X49.601 Y60.918 E2.87626
G1 X51.935 Y56.875 E3.05368
G1 X55.059 Y53.406 E3.23109
G1 X58.835 Y50.662 E3.40851
G1 X63.100 Y48.763 E3.58593
G1 X67.666 Y47.793 E3.76335
G1 X72.334 Y47.793 E3.94077
G1 X72.455 Y47.818 E3.94545
G1 X76.900 Y48.763 E4.11819 F600.000
G1 X81.165 Y50.662 E4.29560
G1 X84.941 Y53.406 E4.47302
G1 X88.065 Y56.875 E4.65044
G1 X90.399 Y60.918 E4.82786
G1 X91.842 Y65.357 E5.00528
G1 X92.329 Y70.000 E5.18269
G1 X91.842 Y74.643 E5.36011
G1 X90.399 Y79.082 E5.53753
G1 X88.065 Y83.125 E5.71495
G1 X84.941 Y86.594 E5.89237
G1 X81.165 Y89.338 E6.06979
G1 X76.900 Y91.237 E6.24720
G1 X72.334 Y92.207 E6.42462
G1 X67.666 Y92.207 E6.60204
G1 X63.100 Y91.237 E6.77946
G1 X58.835 Y89.338 E6.95688
G1 X56.409 Y87.575 E7.07084
G1 X56.104 Y87.919 F15000.000
G1 X54.751 Y86.936 E7.13441 F600.000
G1 X51.563 Y83.395 E7.31548
G1 X49.181 Y79.269 E7.49655
G1 X47.709 Y74.738 E7.67762
G1 X47.211 Y70.000 E7.85869
G1 X47.709 Y65.262 E8.03976
G1 X49.181 Y60.731 E8.22083
G1 X51.563 Y56.605 E8.40190
G1 X54.751 Y53.064 E8.58297
G1 X58.605 Y50.264 E8.76404
G1 X62.958 Y48.326 E8.94511
G1 X67.618 Y47.336 E9.12618
G1 X72.382 Y47.336 E9.30725 F600.000
G1 X77.042 Y48.326 E9.48832
G1 X81.243 Y50.197 E9.66308
G1 X81.243 Y50.154 E9.66470
G1 X85.249 Y53.064 E9.85290
G1 X88.437 Y56.605 E10.03397
G1 X90.819 Y60.731 E10.21504
G1 X92.291 Y65.262 E10.39611
G1 X92.789 Y70.000 E10.57718
G1 X92.291 Y74.738 E10.75825
G1 X90.819 Y79.269 E10.93932
G1 X88.437 Y83.395 E11.12039
G1 X85.249 Y86.936 E11.30146
G1 X81.395 Y89.736 E11.48253
G1 X77.042 Y91.674 E11.66360
G1 X72.382 Y92.664 E11.84467
G1 X67.618 Y92.664 E12.02574
G1 X62.958 Y91.674 E12.20681
G1 X58.605 Y89.736 E12.38788
G1 X56.141 Y87.945 E12.50366
G1 X55.836 Y88.289 F15000.000
G1 X54.444 Y87.277 E12.56906 F600.000
G1 X51.191 Y83.665 E12.75378
G1 X48.761 Y79.456 E12.93851
G1 X47.259 Y74.834 E13.12323
G1 X46.751 Y70.000 E13.30795
G1 X47.259 Y65.166 E13.49267
G1 X48.761 Y60.544 E13.67739
G1 X51.191 Y56.335 E13.86212
G1 X54.444 Y52.723 E14.04683
G1 X58.376 Y49.866 E14.23156
G1 X62.816 Y47.889 E14.41628
G1 X67.570 Y46.879 E14.60100
G1 X72.430 Y46.879 E14.78572
G1 X72.645 Y46.924 E14.79406
G1 X77.184 Y47.889 E14.97044 F600.000
G1 X81.624 Y49.866 E15.15517
G1 X85.556 Y52.723 E15.33989
G1 X88.809 Y56.335 E15.52461
G1 X91.239 Y60.544 E15.70933
G1 X92.741 Y65.166 E15.89405
G1 X93.249 Y70.000 E16.07877
G1 X92.741 Y74.834 E16.26350
G1 X91.239 Y79.456 E16.44822
G1 X88.809 Y83.665 E16.63294
G1 X85.556 Y87.277 E16.81766
G1 X81.624 Y90.134 E17.00238
G1 X77.184 Y92.111 E17.18710
G1 X72.430 Y93.121 E17.37183
G1 X67.570 Y93.121 E17.55655
G1 X62.816 Y92.111 E17.74127
G1 X58.376 Y90.134 E17.92599
G1 X55.872 Y88.315 E18.04360
G1 F2220.000 E16.29360
G92 E0
G1 X72.860 Y47.133 F15000.000
G1 X84.649 Y86.270 F15000.000
G1 E1.75000 F2220.000
G1 X80.946 Y88.960 E1.92395 F960.000
G1 X76.765 Y90.821 E2.09790
G1 X72.288 Y91.773 E2.27185
G1 X67.712 Y91.773 E2.44580
G1 X63.235 Y90.821 E2.61975
G1 X59.054 Y88.960 E2.79370
G1 X55.351 Y86.270 E2.96765
G1 X52.288 Y82.868 E3.14159
G1 X50.000 Y78.905 E3.31554
G1 X48.586 Y74.552 E3.48949
G1 X48.107 Y70.000 E3.66344
G1 X48.586 Y65.448 E3.83739
G1 X50.000 Y61.095 E4.01134
G1 X52.288 Y57.132 E4.18529
G1 X55.351 Y53.730 E4.35924
G1 X59.054 Y51.040 E4.53319
G1 X63.235 Y49.179 E4.70714
G1 X67.712 Y48.227 E4.88109
G1 X72.288 Y48.227 E5.05504
G1 X76.765 Y49.179 E5.22899
G1 X80.946 Y51.040 E5.40294
G1 X84.649 Y53.730 E5.57689
G1 X87.712 Y57.132 E5.75083
G1 X90.000 Y61.095 E5.92478
G1 X91.414 Y65.448 E6.09873
G1 X91.893 Y70.000 E6.27268
G1 X91.414 Y74.552 E6.44663
G1 X90.000 Y78.905 E6.62058
G1 X87.712 Y82.868 E6.79453
G1 X84.679 Y86.236 E6.96677
G1 F2220.000 E5.21677
G92 E0
G1 X61.501 Y82.964 F15000.000
G1 E1.75000 F2220.000
G1 X58.923 Y85.542 E1.88856 F960.000
G1 X55.401 Y84.599 E2.02712
G1 X54.458 Y81.077 E2.16567
G1 X57.036 Y78.499 E2.30423
G1 X60.557 Y79.443 E2.44279
G1 X61.489 Y82.921 E2.57964
G1 F2220.000 E0.82964
G92 E0
G1 X78.499 Y82.964 F15000.000
G1 E1.75000 F2220.000
G1 X79.443 Y79.443 E1.88856 F960.000
G1 X82.964 Y78.499 E2.02712
G1 X85.542 Y81.077 E2.16567
G1 X84.599 Y84.599 E2.30423
G1 X81.077 Y85.542 E2.44279
G1 X78.531 Y82.996 E2.57964
G1 F2220.000 E0.82964
G92 E0
G1 X82.964 Y61.501 F15000.000
G1 E1.75000 F2220.000
G1 X79.443 Y60.557 E1.88856 F960.000
G1 X78.499 Y57.036 E2.02712
G1 X81.077 Y54.458 E2.16567
G1 X84.599 Y55.401 E2.30423
G1 X85.542 Y58.923 E2.44279
G1 X82.996 Y61.469 E2.57964
G1 F2220.000 E0.82964
G92 E0
G1 X61.501 Y57.036 F15000.000
G1 E1.75000 F2220.000
G1 X60.557 Y60.557 E1.88856 F960.000
G1 X57.036 Y61.501 E2.02712
G1 X54.458 Y58.923 E2.16567
G1 X55.401 Y55.401 E2.30423
G1 X58.923 Y54.458 E2.44279
G1 X61.469 Y57.004 E2.57964
G1 X62.012 Y56.899 F15000.000
G1 X59.060 Y53.947 E2.73831 F960.000
G1 X55.310 Y54.952 E2.88587
G1 X55.131 Y54.660 E2.89888
G1 X55.659 Y54.073 E2.92889
G1 X59.284 Y51.439 E3.09918
G1 X63.377 Y49.617 E3.26947
G1 X67.760 Y48.685 E3.43976
G1 X72.240 Y48.685 E3.61004
G1 X76.623 Y49.617 E3.78033
G1 X80.716 Y51.439 E3.95062
G1 X84.341 Y54.073 E4.12091
G1 X84.869 Y54.660 E4.15092
G1 X84.691 Y54.952 E4.16393
G1 X80.940 Y53.947 E4.31149
G1 X77.988 Y56.899 E4.47016
G1 X79.069 Y60.931 E4.62883
G1 X83.101 Y62.012 E4.78750
G1 X86.053 Y59.060 E4.94617
G1 X85.077 Y55.415 E5.08957
G1 X85.394 Y55.243 E5.10330
G1 X87.339 Y57.403 E5.21375
G1 X89.579 Y61.283 E5.38404
G1 X90.964 Y65.544 E5.55433
G1 X91.432 Y70.000 E5.72462
G1 X90.964 Y74.456 E5.89491
G1 X89.579 Y78.717 E6.06519
G1 X87.339 Y82.597 E6.23548
G1 X85.394 Y84.757 E6.34594
G1 X85.077 Y84.585 E6.35967
G1 X86.053 Y80.940 E6.50307
G1 X83.101 Y77.988 E6.66174
G1 X79.069 Y79.069 E6.82041
G1 X77.988 Y83.101 E6.97908
G1 X80.940 Y86.053 E7.13775
G1 X84.691 Y85.048 E7.28531
G1 X84.869 Y85.340 E7.29832
G1 X84.341 Y85.927 E7.32833
G1 X80.716 Y88.561 E7.49862
G1 X76.623 Y90.383 E7.66891
G1 X72.240 Y91.315 E7.83920
G1 X67.760 Y91.315 E8.00948
G1 X63.377 Y90.383 E8.17977
G1 X59.284 Y88.561 E8.35006
G1 X55.659 Y85.927 E8.52035
G1 X55.131 Y85.340 E8.55036
G1 X55.309 Y85.048 E8.56337
G1 X59.060 Y86.053 E8.71093
G1 X62.012 Y83.101 E8.86960
G1 X60.931 Y79.069 E9.02827
G1 X56.899 Y77.988 E9.18694
G1 X53.947 Y80.940 E9.34561
G1 X54.923 Y84.585 E9.48901
G1 X54.606 Y84.757 E9.50274
G1 X52.661 Y82.597 E9.61319
G1 X50.421 Y78.717 E9.78348
G1 X49.036 Y74.456 E9.95377
G1 X48.568 Y70.000 E10.12406
G1 X49.036 Y65.544 E10.29435
G1 X50.421 Y61.283 E10.46464
G1 X52.661 Y57.403 E10.63493
G1 X54.606 Y55.243 E10.74538
G1 X54.923 Y55.415 E10.75911
G1 X53.947 Y59.060 E10.90251
G1 X56.899 Y62.012 E11.06118
G1 X60.931 Y60.931 E11.21985
G1 X62.000 Y56.942 E11.37681
G1 X62.523 Y56.762 F15000.000
G1 X59.197 Y53.435 E11.55559 F960.000
G1 X57.227 Y53.963 E11.63308
G1 X57.063 Y53.619 E11.64757
G1 X59.514 Y51.838 E11.76272
G1 X63.520 Y50.055 E11.92935
G1 X67.808 Y49.144 E12.09598
G1 X72.192 Y49.144 E12.26260
G1 X76.480 Y50.055 E12.42923
G1 X80.486 Y51.838 E12.59586
G1 X82.937 Y53.619 E12.71101
G1 X82.773 Y53.963 E12.72550
G1 X80.803 Y53.436 E12.80299
G1 X77.477 Y56.762 E12.98177
G1 X78.695 Y61.305 E13.16055
G1 X83.238 Y62.523 E13.33933
G1 X86.564 Y59.197 E13.51811
G1 X86.013 Y57.140 E13.59902
G1 X86.331 Y56.968 E13.61275
G1 X86.966 Y57.673 E13.64883
G1 X89.158 Y61.470 E13.81546
G1 X90.513 Y65.640 E13.98209
G1 X90.971 Y70.000 E14.14871
G1 X90.513 Y74.360 E14.31534
G1 X89.158 Y78.530 E14.48197
G1 X86.966 Y82.327 E14.64860
G1 X86.331 Y83.032 E14.68467
G1 X86.013 Y82.860 E14.69840
G1 X86.564 Y80.803 E14.77932
G1 X83.238 Y77.477 E14.95810
G1 X78.695 Y78.695 E15.13688
G1 X77.477 Y83.238 E15.31566
G1 X80.803 Y86.564 E15.49444
G1 X82.773 Y86.037 E15.57193
G1 X82.937 Y86.381 E15.58642
G1 X80.486 Y88.162 E15.70157
G1 X76.480 Y89.945 E15.86820
G1 X72.192 Y90.856 E16.03483
G1 X67.808 Y90.856 E16.20145
G1 X63.520 Y89.945 E16.36808
G1 X59.514 Y88.162 E16.53471
G1 X57.063 Y86.381 E16.64986
G1 X57.227 Y86.037 E16.66435
G1 X59.197 Y86.564 E16.74184
G1 X62.523 Y83.238 E16.92062
G1 X61.305 Y78.695 E17.09940
G1 X56.762 Y77.477 E17.27818
G1 X53.436 Y80.803 E17.45696
G1 X53.987 Y82.860 E17.53787
G1 X53.669 Y83.032 E17.55160
G1 X53.034 Y82.327 E17.58768
G1 X50.842 Y78.530 E17.75431
G1 X49.487 Y74.360 E17.92094
G1 X49.029 Y70.000 E18.08756
G1 X49.487 Y65.640 E18.25419
G1 X50.842 Y61.470 E18.42082
G1 X53.034 Y57.673 E18.58744
G1 X53.669 Y56.968 E18.62352
G1 X53.987 Y57.140 E18.63725
G1 X53.436 Y59.197 E18.71816
G1 X56.762 Y62.523 E18.89694
G1 X61.305 Y61.305 E19.07572
G1 X62.511 Y56.805 E19.25279
G1 X63.034 Y56.625 F15000.000
G1 X59.109 Y52.699 E19.46377 F960.000
G1 X59.745 Y52.237 E19.49365
G1 X63.662 Y50.493 E19.65662
G1 X67.856 Y49.602 E19.81958
G1 X72.144 Y49.602 E19.98255
G1 X76.338 Y50.493 E20.14552
G1 X80.255 Y52.237 E20.30848
G1 X80.891 Y52.699 E20.33836
G1 X76.966 Y56.625 E20.54934
G1 X78.320 Y61.680 E20.74823
G1 X83.375 Y63.034 E20.94712
G1 X87.278 Y59.131 E21.15692
G1 X88.737 Y61.658 E21.26781
G1 X90.062 Y65.736 E21.43077
G1 X90.511 Y70.000 E21.59374
G1 X90.062 Y74.264 E21.75670
G1 X88.737 Y78.342 E21.91967
G1 X87.278 Y80.869 E22.03056
G1 X83.375 Y76.966 E22.24036
G1 X78.320 Y78.320 E22.43925
G1 X76.966 Y83.375 E22.63814
G1 X80.891 Y87.301 E22.84912
G1 X80.255 Y87.763 E22.87900
G1 X76.338 Y89.507 E23.04196
G1 X72.144 Y90.398 E23.20493
G1 X67.856 Y90.398 E23.36789
G1 X63.662 Y89.507 E23.53086
G1 X59.745 Y87.763 E23.69383
G1 X59.109 Y87.301 E23.72371
G1 X63.034 Y83.375 E23.93469
G1 X61.680 Y78.320 E24.13358
G1 X56.625 Y76.966 E24.33247
G1 X52.722 Y80.869 E24.54226
G1 X51.263 Y78.342 E24.65315
G1 X49.938 Y74.264 E24.81612
G1 X49.490 Y70.000 E24.97908
G1 X49.938 Y65.736 E25.14205
G1 X51.263 Y61.658 E25.30502
G1 X52.722 Y59.131 E25.41591
G1 X56.625 Y63.034 E25.62570
G1 X61.680 Y61.680 E25.82459
G1 X63.022 Y56.668 E26.02177
G1 X63.545 Y56.488 F15000.000
G1 X59.780 Y52.723 E26.22412 F960.000
G1 X63.804 Y50.932 E26.39152
G1 X67.904 Y50.060 E26.55083
G1 X72.096 Y50.060 E26.71013
G1 X76.196 Y50.932 E26.86944
G1 X80.220 Y52.723 E27.03684
G1 X76.455 Y56.488 E27.23919
G1 X77.946 Y62.054 E27.45819
G1 X83.512 Y63.545 E27.67720
G1 X87.180 Y59.877 E27.87435
G1 X88.316 Y61.845 E27.96071
G1 X89.612 Y65.831 E28.12002
G1 X90.050 Y70.000 E28.27932
G1 X89.612 Y74.169 E28.43862
G1 X88.316 Y78.155 E28.59793
G1 X87.180 Y80.123 E28.68429
G1 X83.512 Y76.455 E28.88144
G1 X77.946 Y77.946 E29.10044
G1 X76.455 Y83.512 E29.31945
G1 X80.220 Y87.277 E29.52180
G1 X76.196 Y89.068 E29.68920
G1 X72.096 Y89.940 E29.84851
G1 X67.904 Y89.940 E30.00781
G1 X63.804 Y89.068 E30.16712
G1 X59.780 Y87.277 E30.33452
G1 X63.545 Y83.512 E30.53687
G1 X62.054 Y77.946 E30.75587
G1 X56.488 Y76.455 E30.97487
G1 X52.820 Y80.123 E31.17202
G1 X51.684 Y78.155 E31.25838
G1 X50.388 Y74.169 E31.41769
G1 X49.950 Y70.000 E31.57699
G1 X50.388 Y65.831 E31.73630
G1 X51.684 Y61.845 E31.89560
G1 X52.820 Y59.877 E31.98197
G1 X56.488 Y63.545 E32.17912
G1 X62.054 Y62.054 E32.39812
G1 X63.533 Y56.531 E32.61541
G1 X64.056 Y56.351 F15000.000
G1 X60.576 Y52.871 E32.80247 F960.000
G1 X63.947 Y51.370 E32.94271
G1 X67.952 Y50.518 E33.09835
G1 X72.048 Y50.518 E33.25399
G1 X76.053 Y51.370 E33.40964
G1 X79.424 Y52.871 E33.54987
G1 X75.944 Y56.351 E33.73693
G1 X77.572 Y62.428 E33.97605
G1 X83.649 Y64.056 E34.21516
G1 X87.082 Y60.623 E34.39967
G1 X87.895 Y62.032 E34.46150
G1 X89.161 Y65.927 E34.61715
G1 X89.589 Y70.000 E34.77279
