; generated by Slic3r 1.1.7 on 2015-04-22 at 17:21:22

; H-PLA-03-025-1

; perimeters extrusion width = 0.30mm
; infill extrusion width = 0.37mm
; solid infill extrusion width = 0.37mm
; top infill extrusion width = 0.37mm

G21 ; set units to millimeters
M190 S70 ; wait for bed temperature to be reached
M104 S200 ; set temperature
G28
G1 Z0.2 F200
G1 X15 Y20 F12000
M109 S200 ; wait for temperature to be reached
G90 ; use absolute coordinates
G92 E0
M82 ; use absolute distances for extrusion
G1 F2220.000 E-1.75000
G92 E0
G1 Z0.200 F15000.000
G1 X40.692 Y37.940 F15000.000
G1 E1.75000 F2220.000
G1 X41.121 Y37.543 E1.77222 F1200.000
G1 X48.501 Y32.248 E2.11741
G1 X56.819 Y28.603 E2.46260
G1 X65.714 Y26.768 E2.80778
G1 X74.796 Y26.821 E3.15297
G1 X83.669 Y28.762 E3.49816 F1200.000
G1 X91.944 Y32.505 E3.84334
G1 X99.260 Y37.887 E4.18853
G1 X105.298 Y44.672 E4.53372
G1 X109.548 Y52.033 E4.85677
G1 X109.792 Y52.565 E4.87899
G1 X112.548 Y61.219 E5.22418
G1 X113.444 Y70.257 E5.56937
G1 X112.555 Y78.710 E5.89242
G1 X112.441 Y79.284 E5.91464
G1 X109.814 Y87.368 E6.23769
G1 X109.583 Y87.905 E6.25991
G1 X104.996 Y95.743 E6.60510
G1 X99.308 Y102.060 E6.92815
G1 X98.821 Y102.499 E6.95307
G1 X91.499 Y107.752 E7.29554
G1 X83.181 Y111.397 E7.64073
G1 X74.286 Y113.232 E7.98592
G1 X65.203 Y113.179 E8.33111
G1 X56.331 Y111.238 E8.67629
G1 X48.056 Y107.495 E9.02148
G1 X47.998 Y107.453 E9.02419
G1 X40.740 Y102.113 E9.36667
G1 X34.702 Y95.328 E9.71185
G1 X30.208 Y87.435 E10.05704
G1 X27.452 Y78.781 E10.40222
G1 X26.564 Y70.328 E10.72528
G1 X26.556 Y69.743 E10.74750
G1 X27.559 Y60.716 E11.09269
G1 X30.186 Y52.632 E11.41574
G1 X30.417 Y52.095 E11.43796
G1 X34.667 Y44.734 E11.76101
G1 X35.004 Y44.257 E11.78324
G1 X40.662 Y37.973 E12.10457
G1 F2220.000 E10.35457
G92 E0
G1 X81.657 Y82.946 F15000.000
G1 E1.75000 F2220.000
G1 X78.710 Y85.087 E1.88842 F600.000
G1 X75.383 Y86.568 E2.02683
G1 X71.821 Y87.325 E2.16525
G1 X68.179 Y87.325 E2.30366
G1 X64.617 Y86.568 E2.44208
G1 X61.290 Y85.087 E2.58049
G1 X58.343 Y82.946 E2.71891
G1 X55.906 Y80.240 E2.85732
G1 X54.086 Y77.086 E2.99574
G1 X52.960 Y73.622 E3.13415
G1 X52.579 Y70.000 E3.27257
G1 X52.960 Y66.378 E3.41098
G1 X54.086 Y62.914 E3.54940
G1 X55.906 Y59.760 E3.68781
G1 X58.343 Y57.054 E3.82622
G1 X61.290 Y54.913 E3.96464
G1 X64.617 Y53.432 E4.10305
G1 X68.179 Y52.675 E4.24147
G1 X71.821 Y52.675 E4.37988
G1 X75.097 Y53.371 E4.50719
G1 X75.383 Y53.432 E4.51830 F600.000
G1 X78.710 Y54.913 E4.65672
G1 X81.657 Y57.054 E4.79513
G1 X84.094 Y59.760 E4.93354
G1 X85.768 Y62.661 E5.06085
G1 X85.914 Y62.914 E5.07196
G1 X87.040 Y66.378 E5.21037
G1 X87.421 Y70.000 E5.34879
G1 X87.040 Y73.622 E5.48720
G1 X85.914 Y77.086 E5.62562
G1 X84.094 Y80.240 E5.76403
G1 X81.687 Y82.913 E5.90074
G1 X81.349 Y82.604 F15000.000
G1 X78.480 Y84.689 E6.03550 F600.000
G1 X75.241 Y86.131 E6.17026
G1 X71.773 Y86.868 E6.30503
G1 X68.227 Y86.868 E6.43979
G1 X64.998 Y86.182 E6.56527
G1 X64.759 Y86.131 E6.57455
G1 X61.520 Y84.689 E6.70932
G1 X58.651 Y82.604 E6.84408
G1 X56.278 Y79.969 E6.97884
G1 X54.505 Y76.899 E7.11361
G1 X53.410 Y73.526 E7.24837
G1 X53.039 Y70.000 E7.38313
G1 X53.410 Y66.474 E7.51790
G1 X54.505 Y63.101 E7.65266
G1 X56.278 Y60.031 E7.78742
G1 X58.651 Y57.396 E7.92219
G1 X61.520 Y55.311 E8.05695
G1 X64.759 Y53.869 E8.19171
G1 X68.227 Y53.132 E8.32648
G1 X71.773 Y53.132 E8.46124 F600.000
G1 X75.241 Y53.869 E8.59600
G1 X78.480 Y55.311 E8.73077
G1 X81.349 Y57.396 E8.86553
G1 X83.722 Y60.031 E9.00029
G1 X85.495 Y63.101 E9.13506
G1 X86.590 Y66.474 E9.26982
G1 X86.961 Y70.000 E9.40458
G1 X86.590 Y73.526 E9.53934
G1 X85.495 Y76.899 E9.67411
G1 X83.722 Y79.969 E9.80887
G1 X81.379 Y82.571 E9.94192
G1 X81.042 Y82.263 F15000.000
G1 X78.251 Y84.291 E10.07303 F600.000
G1 X75.099 Y85.694 E10.20415
G1 X71.725 Y86.411 E10.33526
G1 X68.275 Y86.411 E10.46637
G1 X64.901 Y85.694 E10.59748
G1 X61.749 Y84.291 E10.72859
G1 X58.958 Y82.263 E10.85971
G1 X56.650 Y79.699 E10.99082
G1 X54.925 Y76.712 E11.12193
G1 X53.859 Y73.431 E11.25304
G1 X53.499 Y70.000 E11.38415
G1 X53.859 Y66.569 E11.51526
G1 X54.925 Y63.288 E11.64637
G1 X56.650 Y60.301 E11.77749
G1 X58.958 Y57.737 E11.90860
G1 X61.749 Y55.709 E12.03971
G1 X64.901 Y54.306 E12.17082
G1 X68.275 Y53.589 E12.30193
G1 X71.725 Y53.589 E12.43304
G1 X74.907 Y54.265 E12.55670
G1 X75.099 Y54.306 E12.56415 F600.000
G1 X78.251 Y55.709 E12.69527
G1 X81.042 Y57.737 E12.82638
G1 X83.350 Y60.301 E12.95749
G1 X84.977 Y63.118 E13.08114
G1 X85.075 Y63.288 E13.08860
G1 X86.141 Y66.569 E13.21971
G1 X86.501 Y70.000 E13.35082
G1 X86.141 Y73.431 E13.48193
G1 X85.075 Y76.712 E13.61305
G1 X83.350 Y79.699 E13.74416
G1 X81.072 Y82.229 E13.87356
G1 F2220.000 E12.12356
G92 E0
G1 X74.914 Y54.069 F15000.000
G1 X94.678 Y101.032 F15000.000
G1 E1.75000 F2220.000
G1 X89.915 Y104.493 E1.97378 F600.000
G1 X82.308 Y107.880 E2.29025
G1 X74.163 Y109.611 E2.60671
G1 X65.837 Y109.611 E2.92318
G1 X57.692 Y107.880 E3.23964
G1 X50.085 Y104.493 E3.55611
G1 X43.349 Y99.599 E3.87257
G1 X37.777 Y93.411 E4.18903
G1 X33.614 Y86.200 E4.50550
G1 X31.041 Y78.281 E4.82196
G1 X30.171 Y70.000 E5.13843
G1 X31.041 Y61.719 E5.45489
G1 X33.614 Y53.800 E5.77135
G1 X37.777 Y46.589 E6.08782
G1 X43.349 Y40.401 E6.40428
G1 X50.085 Y35.507 E6.72075
G1 X57.692 Y32.120 E7.03721
G1 X65.837 Y30.389 E7.35367
G1 X74.163 Y30.389 E7.67014
G1 X82.308 Y32.120 E7.98660
G1 X89.915 Y35.507 E8.30307 F600.000
G1 X96.651 Y40.401 E8.61953
G1 X102.223 Y46.589 E8.93600
G1 X106.386 Y53.800 E9.25246
G1 X108.959 Y61.719 E9.56892
G1 X109.829 Y70.000 E9.88539
G1 X108.959 Y78.281 E10.20185
G1 X106.386 Y86.200 E10.51831
G1 X102.223 Y93.411 E10.83478
G1 X96.651 Y99.599 E11.15124
G1 X94.715 Y101.006 E11.24221
G1 X94.947 Y101.402 F15000.000
G1 X90.145 Y104.891 E11.46782 F600.000
G1 X82.450 Y108.317 E11.78794
G1 X74.211 Y110.068 E12.10805
G1 X65.789 Y110.068 E12.42817
G1 X57.550 Y108.317 E12.74829
G1 X49.855 Y104.891 E13.06840
G1 X43.041 Y99.941 E13.38852
G1 X37.405 Y93.681 E13.70863
G1 X33.194 Y86.387 E14.02875
G1 X30.591 Y78.377 E14.34887
G1 X29.711 Y70.000 E14.66898
G1 X30.591 Y61.623 E14.98910
G1 X33.194 Y53.613 E15.30921
G1 X37.405 Y46.319 E15.62933
G1 X43.041 Y40.059 E15.94944
G1 X49.855 Y35.109 E16.26956
G1 X57.550 Y31.683 E16.58968
G1 X65.789 Y29.932 E16.90979
G1 X74.211 Y29.932 E17.22991 F600.000
G1 X82.450 Y31.683 E17.55002
G1 X90.145 Y35.109 E17.87014
G1 X96.959 Y40.059 E18.19026
G1 X102.595 Y46.319 E18.51037
G1 X106.806 Y53.613 E18.83049
G1 X109.409 Y61.623 E19.15060
G1 X110.289 Y70.000 E19.47072
G1 X109.409 Y78.377 E19.79083
G1 X106.806 Y86.387 E20.11095
G1 X102.595 Y93.681 E20.43107
G1 X96.959 Y99.941 E20.75118
G1 X94.983 Y101.376 E20.84398
G1 X95.216 Y101.772 F15000.000
G1 X90.374 Y105.289 E21.07141 F600.000
G1 X82.592 Y108.754 E21.39518
G1 X74.259 Y110.525 E21.71895
G1 X65.741 Y110.525 E22.04272
G1 X57.408 Y108.754 E22.36648
G1 X49.626 Y105.289 E22.69025
G1 X42.734 Y100.282 E23.01402
G1 X37.034 Y93.951 E23.33779
G1 X32.774 Y86.574 E23.66155
G1 X30.142 Y78.472 E23.98532
G1 X29.251 Y70.000 E24.30909
G1 X30.142 Y61.528 E24.63286
G1 X32.760 Y53.469 E24.95491
G1 X37.034 Y46.049 E25.28035
G1 X42.734 Y39.718 E25.60412
G1 X49.626 Y34.711 E25.92789
G1 X57.408 Y31.246 E26.25166
G1 X65.741 Y29.475 E26.57542
G1 X74.304 Y29.484 E26.90087
G1 X82.592 Y31.246 E27.22292 F600.000
G1 X90.374 Y34.711 E27.54669
G1 X97.266 Y39.718 E27.87046
G1 X102.966 Y46.049 E28.19422
G1 X107.203 Y53.387 E28.51628
G1 X109.858 Y61.528 E28.84172
G1 X110.749 Y70.000 E29.16549
G1 X109.858 Y78.472 E29.48926
G1 X107.226 Y86.574 E29.81302
G1 X102.966 Y93.951 E30.13679
G1 X97.266 Y100.282 E30.46056
G1 X95.252 Y101.745 E30.55518
G1 F2220.000 E28.80518
G92 E0
G1 X74.558 Y29.643 F15000.000
G1 X96.359 Y99.275 F15000.000
G1 E1.75000 F2220.000
G1 X89.696 Y104.115 E2.06300 F960.000
G1 X82.173 Y107.465 E2.37599
G1 X74.118 Y109.177 E2.68899
G1 X65.882 Y109.177 E3.00198
G1 X57.827 Y107.465 E3.31498
G1 X50.304 Y104.115 E3.62797
G1 X43.641 Y99.275 E3.94097
G1 X38.131 Y93.155 E4.25396
G1 X34.013 Y86.023 E4.56696
G1 X31.468 Y78.190 E4.87995
G1 X30.607 Y70.000 E5.19295
G1 X31.468 Y61.810 E5.50594
G1 X34.013 Y53.977 E5.81894
G1 X38.131 Y46.845 E6.13193
G1 X43.641 Y40.725 E6.44493
G1 X50.304 Y35.885 E6.75792
G1 X57.827 Y32.535 E7.07092
G1 X65.882 Y30.823 E7.38391
G1 X74.118 Y30.823 E7.69691
G1 X82.173 Y32.535 E8.00990
G1 X89.696 Y35.885 E8.32290
G1 X96.359 Y40.725 E8.63590
G1 X101.869 Y46.845 E8.94889
G1 X105.987 Y53.977 E9.26188
G1 X108.532 Y61.810 E9.57488
G1 X109.393 Y70.000 E9.88788
G1 X108.532 Y78.190 E10.20087
G1 X105.987 Y86.023 E10.51386
G1 X101.869 Y93.155 E10.82686
G1 X96.389 Y99.241 E11.13814
G1 X96.050 Y98.931 F15000.000
G1 X89.466 Y103.715 E11.44747 F960.000
G1 X82.030 Y107.026 E11.75680
G1 X74.069 Y108.718 E12.06612
G1 X65.931 Y108.718 E12.37545
G1 X57.970 Y107.026 E12.68477
G1 X50.534 Y103.715 E12.99410
G1 X43.950 Y98.931 E13.30343
G1 X38.504 Y92.883 E13.61275
G1 X34.435 Y85.835 E13.92208
G1 X31.920 Y78.094 E14.23140
G1 X31.069 Y70.000 E14.54073
G1 X31.920 Y61.906 E14.85006
G1 X34.435 Y54.165 E15.15938
G1 X38.504 Y47.117 E15.46871
G1 X43.950 Y41.069 E15.77803
G1 X50.534 Y36.285 E16.08736
G1 X57.970 Y32.974 E16.39669
G1 X65.931 Y31.282 E16.70601
G1 X74.069 Y31.282 E17.01534
G1 X82.030 Y32.974 E17.32466
G1 X89.466 Y36.285 E17.63399
G1 X96.050 Y41.069 E17.94332
G1 X101.496 Y47.117 E18.25264
G1 X105.565 Y54.165 E18.56197
G1 X108.080 Y61.906 E18.87129
G1 X108.931 Y70.000 E19.18062
G1 X108.080 Y78.094 E19.48995
G1 X105.565 Y85.835 E19.79927
G1 X101.496 Y92.883 E20.10860
G1 X96.080 Y98.898 E20.41621
G1 X95.741 Y98.588 F15000.000
G1 X89.235 Y103.315 E20.72187 F960.000
G1 X81.888 Y106.586 E21.02753
G1 X74.021 Y108.259 E21.33318
G1 X65.979 Y108.259 E21.63884
G1 X58.112 Y106.586 E21.94450
G1 X50.765 Y103.315 E22.25016
G1 X44.259 Y98.588 E22.55581
G1 X38.878 Y92.612 E22.86147
G1 X34.857 Y85.647 E23.16713
G1 X32.371 Y77.998 E23.47278
G1 X31.531 Y70.000 E23.77844
G1 X32.371 Y62.002 E24.08410
G1 X34.857 Y54.353 E24.38975
G1 X38.878 Y47.388 E24.69541
G1 X44.259 Y41.412 E25.00106
G1 X50.765 Y36.685 E25.30672
G1 X58.112 Y33.414 E25.61238
G1 X65.979 Y31.741 E25.91804
G1 X74.021 Y31.741 E26.22369
G1 X81.888 Y33.414 E26.52935
G1 X89.235 Y36.685 E26.83501
G1 X95.741 Y41.412 E27.14067
G1 X101.122 Y47.388 E27.44632
G1 X105.143 Y54.353 E27.75198
G1 X107.629 Y62.002 E28.05763
G1 X108.469 Y70.000 E28.36329
G1 X107.629 Y77.998 E28.66895
G1 X105.143 Y85.647 E28.97460
G1 X101.122 Y92.612 E29.28026
G1 X95.771 Y98.555 E29.58421
G1 X95.432 Y98.245 F15000.000
G1 X89.004 Y102.915 E29.88619 F960.000
G1 X81.745 Y106.147 E30.18818
G1 X73.973 Y107.799 E30.49017
G1 X66.027 Y107.799 E30.79216
G1 X58.255 Y106.147 E31.09415
G1 X50.996 Y102.915 E31.39613
G1 X44.568 Y98.245 E31.69812
G1 X39.251 Y92.340 E32.00011
G1 X35.278 Y85.459 E32.30210
G1 X32.823 Y77.902 E32.60408
G1 X31.993 Y70.000 E32.90607
G1 X32.823 Y62.098 E33.20806
G1 X35.278 Y54.541 E33.51005
G1 X39.251 Y47.660 E33.81204
G1 X44.568 Y41.755 E34.11402
G1 X50.996 Y37.085 E34.41601
G1 X58.255 Y33.853 E34.71800
G1 X66.027 Y32.201 E35.01999
G1 X73.973 Y32.201 E35.32197
G1 X81.745 Y33.853 E35.62396
G1 X89.004 Y37.085 E35.92595
G1 X95.432 Y41.755 E36.22794
G1 X100.749 Y47.660 E36.52992
G1 X104.722 Y54.541 E36.83191
G1 X107.177 Y62.098 E37.13390
G1 X108.007 Y70.000 E37.43589
G1 X107.177 Y77.902 E37.73788
G1 X104.722 Y85.459 E38.03986
G1 X100.749 Y92.340 E38.34185
G1 X95.462 Y98.212 E38.64213
G1 X95.123 Y97.902 F15000.000
G1 X88.773 Y102.515 E38.94045 F960.000
G1 X81.602 Y105.708 E39.23876
G1 X73.925 Y107.340 E39.53708
G1 X66.075 Y107.340 E39.83540
G1 X58.398 Y105.708 E40.13372
G1 X51.227 Y102.515 E40.43204
G1 X44.877 Y97.902 E40.73036
G1 X39.625 Y92.069 E41.02868
G1 X35.700 Y85.271 E41.32700
G1 X33.275 Y77.806 E41.62531
G1 X32.454 Y70.000 E41.92363
G1 X33.275 Y62.194 E42.22195
G1 X35.700 Y54.729 E42.52027
G1 X39.625 Y47.931 E42.81859
G1 X44.877 Y42.098 E43.11690
G1 X51.227 Y37.485 E43.41522
G1 X58.398 Y34.292 E43.71354
G1 X66.075 Y32.660 E44.01186
G1 X73.925 Y32.660 E44.31018
G1 X81.602 Y34.292 E44.60850
G1 X88.773 Y37.485 E44.90682
G1 X95.123 Y42.098 E45.20514
G1 X100.375 Y47.931 E45.50346
G1 X104.300 Y54.729 E45.80177
G1 X106.725 Y62.194 E46.10009
G1 X107.546 Y70.000 E46.39841
G1 X106.725 Y77.806 E46.69673
G1 X104.300 Y85.271 E46.99505
G1 X100.375 Y92.069 E47.29337
G1 X95.153 Y97.868 E47.58997
G1 X94.814 Y97.559 F15000.000
G1 X88.542 Y102.116 E47.88462 F960.000
G1 X81.460 Y105.269 E48.17927
G1 X73.876 Y106.881 E48.47392
G1 X66.124 Y106.881 E48.76857
G1 X58.540 Y105.269 E49.06322
G1 X51.458 Y102.116 E49.35787
G1 X45.186 Y97.559 E49.65252
G1 X39.998 Y91.797 E49.94717
G1 X36.122 Y85.083 E50.24182
G1 X33.727 Y77.710 E50.53647
G1 X32.916 Y70.000 E50.83112
G1 X33.727 Y62.290 E51.12577
G1 X36.122 Y54.917 E51.42042
G1 X39.999 Y48.203 E51.71507
G1 X45.186 Y42.441 E52.00971
G1 X51.458 Y37.884 E52.30436
G1 X58.540 Y34.731 E52.59901
G1 X66.124 Y33.119 E52.89366
G1 X73.876 Y33.119 E53.18831
G1 X81.460 Y34.731 E53.48296
G1 X88.542 Y37.884 E53.77761
G1 X94.814 Y42.441 E54.07226
G1 X100.001 Y48.203 E54.36691
G1 X103.878 Y54.917 E54.66156
G1 X106.273 Y62.290 E54.95621
G1 X107.084 Y70.000 E55.25086
G1 X106.273 Y77.710 E55.54551
G1 X103.878 Y85.083 E55.84016
G1 X100.001 Y91.797 E56.13481
G1 X94.844 Y97.525 E56.42774
G1 X94.505 Y97.215 F15000.000
G1 X88.311 Y101.716 E56.71873 F960.000
G1 X81.317 Y104.830 E57.00971
G1 X73.828 Y106.421 E57.30069
G1 X66.172 Y106.421 E57.59167
G1 X58.683 Y104.830 E57.88265
G1 X51.689 Y101.716 E58.17363
G1 X45.495 Y97.215 E58.46461
G1 X40.372 Y91.526 E58.75559
G1 X36.544 Y84.896 E59.04657
G1 X34.178 Y77.614 E59.33755
G1 X33.378 Y70.000 E59.62853
G1 X34.178 Y62.386 E59.91951
G1 X36.544 Y55.104 E60.21049
G1 X40.372 Y48.474 E60.50147
G1 X45.495 Y42.785 E60.79245
G1 X51.689 Y38.284 E61.08343
G1 X58.683 Y35.170 E61.37441
G1 X66.172 Y33.579 E61.66539
G1 X73.828 Y33.579 E61.95637
G1 X81.317 Y35.170 E62.24735
G1 X88.311 Y38.284 E62.53833
G1 X94.505 Y42.785 E62.82932
G1 X99.628 Y48.474 E63.12029
G1 X103.456 Y55.104 E63.41127
G1 X105.822 Y62.386 E63.70225
G1 X106.622 Y70.000 E63.99323
G1 X105.822 Y77.614 E64.28422
G1 X103.456 Y84.896 E64.57519
G1 X99.628 Y91.526 E64.86618
G1 X94.535 Y97.182 E65.15544
G1 X94.196 Y96.872 F15000.000
G1 X88.080 Y101.316 E65.44275 F960.000
G1 X81.174 Y104.390 E65.73007
G1 X73.780 Y105.962 E66.01738
G1 X66.220 Y105.962 E66.30469
G1 X58.826 Y104.390 E66.59200
G1 X51.920 Y101.316 E66.87931
G1 X45.804 Y96.872 E67.16663
G1 X40.746 Y91.255 E67.45393
G1 X36.966 Y84.708 E67.74125
G1 X34.630 Y77.518 E68.02856
G1 X33.840 Y70.000 E68.31587
G1 X34.630 Y62.482 E68.60318
G1 X36.966 Y55.292 E68.89049
G1 X40.746 Y48.746 E69.17780
G1 X45.804 Y43.128 E69.46511
G1 X51.920 Y38.684 E69.75242
G1 X58.826 Y35.610 E70.03973
G1 X66.220 Y34.038 E70.32705
G1 X73.780 Y34.038 E70.61436
G1 X81.174 Y35.610 E70.90167
G1 X88.080 Y38.684 E71.18898
G1 X94.196 Y43.128 E71.47629
G1 X99.254 Y48.746 E71.76360
G1 X103.034 Y55.292 E72.05091
G1 X105.370 Y62.482 E72.33822
G1 X106.160 Y70.000 E72.62554
G1 X105.370 Y77.518 E72.91285
G1 X103.034 Y84.708 E73.20016
G1 X99.254 Y91.255 E73.48747
G1 X94.226 Y96.839 E73.77307
G1 X93.887 Y96.529 F15000.000
G1 X87.849 Y100.916 E74.05671 F960.000
G1 X81.031 Y103.951 E74.34035
G1 X73.732 Y105.503 E74.62400
G1 X66.269 Y105.503 E74.90764
G1 X58.969 Y103.951 E75.19128
G1 X52.151 Y100.916 E75.47492
G1 X46.113 Y96.529 E75.75857
G1 X41.119 Y90.983 E76.04221
G1 X37.388 Y84.520 E76.32585
G1 X35.082 Y77.422 E76.60949
G1 X34.301 Y70.000 E76.89313
G1 X35.082 Y62.578 E77.17677
G1 X37.388 Y55.480 E77.46042
G1 X41.119 Y49.017 E77.74406
G1 X46.113 Y43.471 E78.02770
G1 X52.151 Y39.084 E78.31134
G1 X58.969 Y36.049 E78.59498
G1 X66.268 Y34.497 E78.87863
G1 X73.732 Y34.497 E79.16227
G1 X81.031 Y36.049 E79.44591
G1 X87.849 Y39.084 E79.72955
G1 X93.887 Y43.471 E80.01320
G1 X98.881 Y49.017 E80.29684
G1 X102.612 Y55.480 E80.58048
G1 X104.918 Y62.578 E80.86412
G1 X105.699 Y70.000 E81.14776
G1 X104.918 Y77.422 E81.43140
G1 X102.612 Y84.520 E81.71505
G1 X98.881 Y90.983 E81.99869
G1 X93.917 Y96.496 E82.28062
G1 X93.578 Y96.186 F15000.000
G1 X87.618 Y100.516 E82.56059 F960.000
